; generated by Slic3r 1.37.1-prusa3d-win64 on 2017-10-02 at 15:57:23

; 

; external perimeters extrusion width = 0.45mm
; perimeters extrusion width = 0.45mm
; infill extrusion width = 0.45mm
; solid infill extrusion width = 0.45mm
; top infill extrusion width = 0.45mm
; first layer extrusion width = 0.42mm

M107
M115 U3.0.12 ; tell printer latest fw version
M83  ; extruder relative mode
M104 S230 ; set extruder temp
M140 S85 ; set bed temp
M190 S85 ; wait for bed temp
M109 S230 ; wait for extruder temp
G28 W ; home all without mesh bed level
G80 ; mesh bed leveling
G1 Y-3.0 F1000.0 ; go outside pritn area
G1 X60.0 E9.0  F1000.0 ; intro line
G1 X100.0 E12.5  F1000.0 ; intro line
; Filament gcode

G21 ; set units to millimeters
G90 ; use absolute coordinates
M83 ; use relative distances for extrusion
G1 E-0.80000 F2100.00000
G1 Z0.200 F7200.000
G1 X27.771 Y26.687 F7200.000
G1 E0.80000 F2100.00000
M204 S1000
G1 F2100
G1 X28.552 Y25.874 E0.03535
G1 X29.312 Y25.343 E0.02906
G1 X30.146 Y24.953 E0.02888
G1 X31.041 Y24.709 E0.02906
G1 X31.964 Y24.623 E0.02906
G1 X218.006 Y24.623 E5.83322
G1 X219.036 Y24.724 E0.03246
G1 X220.033 Y25.022 E0.03264
G1 X220.950 Y25.504 E0.03246
G1 X221.761 Y26.157 E0.03264
G1 X222.431 Y26.954 E0.03264
G1 X222.933 Y27.859 E0.03246
G1 X223.253 Y28.850 E0.03264
G1 X223.376 Y29.883 E0.03264
G1 X223.377 Y180.069 E4.70896
G1 X223.238 Y181.215 E0.03621
G1 X222.858 Y182.306 E0.03621
G1 X222.253 Y183.290 E0.03621
G1 X221.448 Y184.126 E0.03639
G1 X220.688 Y184.657 E0.02906
G1 X219.854 Y185.047 E0.02888
G1 X218.959 Y185.291 E0.02906
G1 X218.036 Y185.377 E0.02906
G1 X31.983 Y185.377 E5.83358
G1 X30.824 Y185.247 E0.03657
G1 X29.715 Y184.867 E0.03675
G1 X28.719 Y184.260 E0.03657
G1 X27.874 Y183.448 E0.03675
G1 X27.343 Y182.688 E0.02906
G1 X26.953 Y181.854 E0.02888
G1 X26.710 Y180.965 E0.02888
G1 X26.623 Y180.042 E0.02906
G1 X26.623 Y29.977 E4.70518
G1 X26.754 Y28.818 E0.03657
G1 X27.133 Y27.715 E0.03657
G1 X27.732 Y26.732 E0.03609
G1 F5760
G1 X28.552 Y25.874 E-0.41119
G1 F5760
G1 X29.312 Y25.343 E-0.32104
G1 F5760
G1 X29.385 Y25.309 E-0.02777
G1 E-0.04000 F2100.00000
G1 X125.013 Y182.587 F7200.000
G1 E0.80000 F2100.00000
G1 F2100
G1 X124.199 Y183.331 E0.03457
G1 X123.544 Y183.680 E0.02326
G1 X122.462 Y183.959 E0.03505
G1 X31.514 Y183.959 E2.85159
G1 X29.944 Y183.431 E0.05196
G1 X29.435 Y183.036 E0.02020
G1 X28.706 Y182.250 E0.03361
G1 X28.306 Y181.509 E0.02639
G1 X28.041 Y180.462 E0.03385
G1 X28.041 Y29.514 E4.73287
G1 X28.569 Y27.944 E0.05196
G1 X28.964 Y27.435 E0.02020
G1 X29.750 Y26.706 E0.03361
G1 X30.491 Y26.306 E0.02639
G1 X31.538 Y26.041 E0.03385
G1 X122.449 Y26.044 E2.85046
G1 X123.249 Y26.206 E0.02560
G1 X124.043 Y26.567 E0.02735
G1 X125.002 Y27.400 E0.03981
G1 X125.801 Y26.669 E0.03394
G1 X126.456 Y26.320 E0.02326
G1 X127.538 Y26.041 E0.03505
G1 X218.448 Y26.044 E2.85041
G1 X219.284 Y26.218 E0.02679
G1 X220.082 Y26.593 E0.02764
G1 X221.031 Y27.426 E0.03960
G1 X221.639 Y28.358 E0.03489
G1 X221.959 Y29.538 E0.03834
G1 X221.959 Y180.486 E4.73285
G1 X221.431 Y182.056 E0.05196
G1 X221.036 Y182.565 E0.02020
G1 X220.250 Y183.294 E0.03361
G1 X219.509 Y183.694 E0.02639
G1 X218.462 Y183.959 E0.03385
G1 X127.516 Y183.959 E2.85156
G1 X126.009 Y183.467 E0.04970
G1 X125.458 Y183.057 E0.02153
G1 X125.054 Y182.631 E0.01844
G1 X124.989 Y182.008 F7200.000
G1 F2100
G1 X124.766 Y182.302 E0.01156
G1 X123.963 Y183.036 E0.03410
G1 X123.389 Y183.335 E0.02030
G1 X122.438 Y183.582 E0.03082
G1 X31.545 Y183.582 E2.84988
G1 X30.149 Y183.113 E0.04619
G1 X29.699 Y182.766 E0.01781
G1 X29.024 Y182.047 E0.03092
G1 X28.665 Y181.390 E0.02346
G1 X28.418 Y180.438 E0.03086
G1 X28.418 Y29.545 E4.73114
G1 X28.887 Y28.149 E0.04619
G1 X29.234 Y27.699 E0.01781
G1 X29.953 Y27.024 E0.03092
G1 X30.610 Y26.665 E0.02346
G1 X31.562 Y26.418 E0.03086
G1 X122.429 Y26.421 E2.84907
G1 X123.151 Y26.571 E0.02310
G1 X123.859 Y26.898 E0.02447
G1 X124.765 Y27.695 E0.03782
G1 X124.995 Y28.014 E0.01234
G1 X125.234 Y27.698 E0.01240
G1 X126.037 Y26.964 E0.03411
G1 X126.611 Y26.665 E0.02030
G1 X127.562 Y26.418 E0.03083
G1 X218.429 Y26.421 E2.84905
G1 X219.147 Y26.570 E0.02301
G1 X219.855 Y26.895 E0.02440
G1 X220.762 Y27.692 E0.03787
G1 X221.306 Y28.537 E0.03151
G1 X221.582 Y29.563 E0.03331
G1 X221.582 Y180.455 E4.73112
G1 X221.113 Y181.851 E0.04619
G1 X220.766 Y182.301 E0.01781
G1 X220.047 Y182.976 E0.03092
G1 X219.390 Y183.335 E0.02346
G1 X218.438 Y183.582 E0.03086
G1 X127.546 Y183.582 E2.84986
G1 X126.210 Y183.146 E0.04407
G1 X125.697 Y182.765 E0.02002
G1 X125.030 Y182.052 E0.03063
G1 X125.028 Y181.302 F7200.000
G1 F2100
G1 X124.494 Y182.039 E0.02854
G1 X123.764 Y182.715 E0.03119
G1 X123.271 Y182.977 E0.01752
G1 X122.413 Y183.205 E0.02783
G1 X31.576 Y183.205 E2.84813
G1 X30.353 Y182.794 E0.04045
G1 X29.961 Y182.495 E0.01544
G1 X29.341 Y181.841 E0.02825
G1 X29.023 Y181.270 E0.02053
G1 X28.795 Y180.413 E0.02780
G1 X28.795 Y29.576 E4.72939
G1 X29.206 Y28.353 E0.04045
G1 X29.505 Y27.961 E0.01544
G1 X30.159 Y27.341 E0.02825
G1 X30.730 Y27.023 E0.02053
G1 X31.587 Y26.795 E0.02781
G1 X122.409 Y26.798 E2.84765
G1 X123.050 Y26.935 E0.02055
G1 X123.674 Y27.227 E0.02159
G1 X124.493 Y27.957 E0.03441
G1 X124.981 Y28.689 E0.02759
G1 X125.506 Y27.960 E0.02817
G1 X126.236 Y27.285 E0.03118
G1 X126.729 Y27.023 E0.01752
G1 X127.587 Y26.795 E0.02783
G1 X218.410 Y26.798 E2.84767
G1 X219.013 Y26.923 E0.01933
G1 X219.628 Y27.197 E0.02110
G1 X220.492 Y27.957 E0.03609
G1 X220.972 Y28.714 E0.02809
G1 X221.205 Y29.587 E0.02835
G1 X221.205 Y180.424 E4.72939
G1 X220.794 Y181.647 E0.04045
G1 X220.495 Y182.039 E0.01544
G1 X219.841 Y182.659 E0.02825
G1 X219.270 Y182.977 E0.02053
G1 X218.413 Y183.205 E0.02780
G1 X127.576 Y183.205 E2.84813
G1 X126.409 Y182.824 E0.03849
G1 X125.961 Y182.494 E0.01745
G1 X125.311 Y181.801 E0.02979
G1 X125.058 Y181.354 E0.01610
G1 F5760
G1 X124.494 Y182.039 E-0.30720
G1 F5760
G1 X123.764 Y182.715 E-0.34453
G1 F5760
G1 X123.488 Y182.862 E-0.10828
G1 E-0.04000 F2100.00000
G1 X125.145 Y180.316 F7200.000
G1 E0.80000 F2100.00000
G1 F2100
G1 X124.867 Y180.310 E0.00872
G1 X124.502 Y181.393 E0.03584
G1 X124.223 Y181.777 E0.01487
G1 X123.562 Y182.396 E0.02840
G1 X123.149 Y182.620 E0.01474
G1 X122.387 Y182.828 E0.02477
G1 X31.606 Y182.828 E2.84636
G1 X30.555 Y182.475 E0.03476
G1 X30.224 Y182.224 E0.01303
G1 X29.631 Y181.599 E0.02700
G1 X29.380 Y181.148 E0.01620
G1 X29.172 Y180.387 E0.02473
G1 X29.172 Y29.606 E4.72762
G1 X29.525 Y28.555 E0.03476
G1 X29.776 Y28.224 E0.01303
G1 X30.401 Y27.631 E0.02700
G1 X30.852 Y27.380 E0.01620
G1 X31.613 Y27.172 E0.02474
G1 X122.389 Y27.176 E2.84622
G1 X122.914 Y27.287 E0.01681
G1 X123.445 Y27.528 E0.01829
G1 X124.223 Y28.221 E0.03266
G1 X124.595 Y28.793 E0.02140
G1 X124.857 Y29.684 E0.02912
G1 X125.133 Y29.690 E0.00867
G1 X125.498 Y28.607 E0.03582
G1 X125.777 Y28.223 E0.01487
G1 X126.438 Y27.604 E0.02840
G1 X126.851 Y27.380 E0.01474
G1 X127.613 Y27.172 E0.02477
G1 X218.389 Y27.176 E2.84622
G1 X218.914 Y27.287 E0.01681
G1 X219.445 Y27.528 E0.01829
G1 X220.222 Y28.221 E0.03263
G1 X220.616 Y28.841 E0.02306
G1 X220.828 Y29.613 E0.02510
G1 X220.828 Y180.394 E4.72762
G1 X220.475 Y181.445 E0.03476
G1 X220.224 Y181.776 E0.01303
G1 X219.599 Y182.369 E0.02700
G1 X219.148 Y182.620 E0.01620
G1 X218.387 Y182.828 E0.02473
G1 X127.605 Y182.828 E2.84639
G1 X126.606 Y182.502 E0.03296
G1 X126.223 Y182.223 E0.01485
G1 X125.604 Y181.562 E0.02840
G1 X125.380 Y181.148 E0.01476
G1 X125.161 Y180.374 E0.02522
G1 F5760
G1 X124.867 Y180.310 E-0.10435
G1 F5760
G1 X124.502 Y181.393 E-0.39595
G1 F5760
G1 X124.223 Y181.777 E-0.16430
G1 F5760
G1 X124.022 Y181.965 E-0.09540
G1 E-0.04000 F2100.00000
G1 X127.637 Y182.451 F7200.000
G1 E0.80000 F2100.00000
G1 F2100
G1 X126.757 Y182.155 E0.02912
G1 X126.486 Y181.953 E0.01059
G1 X125.922 Y181.357 E0.02573
G1 X125.737 Y181.024 E0.01196
G1 X125.549 Y180.360 E0.02162
G1 X125.549 Y29.637 E4.72581
G1 X125.845 Y28.757 E0.02912
G1 X126.047 Y28.486 E0.01059
G1 X126.643 Y27.922 E0.02573
G1 X126.976 Y27.737 E0.01196
G1 X127.640 Y27.549 E0.02163
G1 X218.368 Y27.553 E2.84471
G1 X218.811 Y27.650 E0.01424
G1 X219.259 Y27.858 E0.01548
G1 X219.950 Y28.483 E0.02920
G1 X220.262 Y28.971 E0.01818
G1 X220.451 Y29.640 E0.02179
G1 X220.451 Y180.363 E4.72581
G1 X220.155 Y181.243 E0.02912
G1 X219.953 Y181.514 E0.01059
G1 X219.357 Y182.078 E0.02573
G1 X219.024 Y182.263 E0.01196
G1 X218.360 Y182.451 E0.02162
G1 X127.697 Y182.451 E2.84268
G1 X127.697 Y182.074 F7200.000
G1 F2100
G1 X126.956 Y181.834 E0.02441
G1 X126.746 Y181.679 E0.00819
G1 X126.237 Y181.149 E0.02305
G1 X126.091 Y180.894 E0.00919
G1 X125.926 Y180.332 E0.01838
G1 X125.926 Y29.668 E4.72397
G1 X126.166 Y28.956 E0.02355
G1 X126.321 Y28.746 E0.00819
G1 X126.851 Y28.237 E0.02305
G1 X127.106 Y28.091 E0.00919
G1 X127.668 Y27.926 E0.01838
G1 X218.346 Y27.930 E2.84313
G1 X218.705 Y28.013 E0.01157
G1 X219.071 Y28.185 E0.01268
G1 X219.676 Y28.743 E0.02580
G1 X219.908 Y29.105 E0.01347
G1 X220.074 Y29.668 E0.01841
G1 X220.074 Y180.332 E4.72397
G1 X219.834 Y181.044 E0.02355
G1 X219.679 Y181.254 E0.00819
G1 X219.149 Y181.763 E0.02305
G1 X218.894 Y181.909 E0.00919
G1 X218.332 Y182.074 E0.01838
G1 X127.757 Y182.074 E2.83992
G1 X127.154 Y181.512 F7200.000
G1 F2100
G1 X127.004 Y181.403 E0.00580
G1 X126.549 Y180.936 E0.02044
G1 X126.444 Y180.759 E0.00643
G1 X126.303 Y180.302 E0.01500
G1 X126.303 Y29.699 E4.72207
G1 X126.488 Y29.154 E0.01806
G1 X126.597 Y29.004 E0.00580
G1 X127.064 Y28.549 E0.02044
G1 X127.241 Y28.444 E0.00643
G1 X127.698 Y28.303 E0.01500
G1 X218.324 Y28.307 E2.84152
G1 X218.562 Y28.362 E0.00767
G1 X218.882 Y28.513 E0.01109
G1 X219.401 Y29.001 E0.02233
G1 X219.556 Y29.242 E0.00898
G1 X219.697 Y29.698 E0.01495
G1 X219.697 Y180.301 E4.72207
G1 X219.512 Y180.846 E0.01806
G1 X219.403 Y180.996 E0.00580
G1 X218.936 Y181.451 E0.02044
G1 X218.759 Y181.556 E0.00643
G1 X218.302 Y181.697 E0.01500
G1 X127.699 Y181.697 E2.84081
G1 X127.210 Y181.531 E0.01618
G1 X127.348 Y181.188 F7200.000
G1 F2100
G1 X127.259 Y181.125 E0.00343
G1 X126.856 Y180.718 E0.01795
G1 X126.794 Y180.617 E0.00371
G1 X126.680 Y180.271 E0.01144
G1 X126.680 Y29.731 E4.72007
G1 X126.812 Y29.348 E0.01270
G1 X126.875 Y29.259 E0.00343
G1 X127.282 Y28.856 E0.01795
G1 X127.383 Y28.794 E0.00371
G1 X127.729 Y28.680 E0.01144
G1 X218.302 Y28.684 E2.83984
G1 X218.419 Y28.711 E0.00377
G1 X218.692 Y28.840 E0.00947
G1 X219.123 Y29.257 E0.01880
G1 X219.207 Y29.385 E0.00479
G1 X219.320 Y29.729 E0.01136
G1 X219.320 Y180.269 E4.72007
G1 X219.188 Y180.652 E0.01270
G1 X219.125 Y180.741 E0.00343
G1 X218.718 Y181.144 E0.01795
G1 X218.617 Y181.206 E0.00371
G1 X218.271 Y181.320 E0.01144
G1 X127.731 Y181.320 E2.83882
G1 X127.405 Y181.207 E0.01081
G1 X127.537 Y180.861 F7200.000
G1 F2100
G1 X127.157 Y180.490 E0.01666
G1 X127.057 Y180.236 E0.00856
G1 X127.057 Y29.764 E4.71792
G1 X127.139 Y29.537 E0.00757
G1 X127.510 Y29.157 E0.01666
G1 X127.764 Y29.057 E0.00856
G1 X218.250 Y29.057 E2.83710
G1 X218.500 Y29.167 E0.00856
G1 X218.843 Y29.510 E0.01522
G1 X218.943 Y29.764 E0.00856
G1 X218.943 Y180.236 E4.71792
G1 X218.861 Y180.463 E0.00757
G1 X218.490 Y180.843 E0.01666
G1 X218.236 Y180.943 E0.00856
G1 X127.764 Y180.943 E2.83666
G1 X127.594 Y180.881 E0.00569
G1 X127.737 Y180.537 F7200.000
G1 F2100
G1 X127.463 Y180.263 E0.01215
G1 X127.434 Y180.194 E0.00235
G1 X127.434 Y29.806 E4.71529
G1 X127.463 Y29.737 E0.00235
G1 X127.737 Y29.463 E0.01215
G1 X127.806 Y29.434 E0.00235
G1 X218.194 Y29.434 E2.83403
G1 X218.263 Y29.463 E0.00235
G1 X218.537 Y29.737 E0.01215
G1 X218.566 Y29.806 E0.00235
G1 X218.566 Y180.194 E4.71529
G1 X218.537 Y180.263 E0.00235
G1 X218.263 Y180.537 E0.01215
G1 X218.194 Y180.566 E0.00235
G1 X127.792 Y180.560 E2.83447
G1 X127.922 Y180.189 F7200.000
G1 F2100
G1 X127.811 Y180.078 E0.00490
G1 X127.811 Y29.922 E4.70804
G1 X127.922 Y29.811 E0.00490
G1 X218.078 Y29.811 E2.82678
G1 X218.189 Y29.922 E0.00490
G1 X218.189 Y180.078 E4.70804
G1 X218.078 Y180.189 E0.00490
G1 X127.982 Y180.189 E2.82490
G1 F5760
G1 X127.811 Y180.078 E-0.07034
G1 F5760
G1 X127.811 Y178.087 E-0.68966
G1 E-0.04000 F2100.00000
G1 X124.451 Y180.363 F7200.000
G1 E0.80000 F2100.00000
G1 F2100
G1 X124.155 Y181.243 E0.02912
G1 X123.953 Y181.514 E0.01059
G1 X123.357 Y182.078 E0.02573
G1 X123.024 Y182.263 E0.01196
G1 X122.360 Y182.451 E0.02162
G1 X31.637 Y182.451 E2.84456
G1 X30.757 Y182.155 E0.02912
G1 X30.486 Y181.953 E0.01059
G1 X29.922 Y181.357 E0.02573
G1 X29.737 Y181.024 E0.01196
G1 X29.549 Y180.360 E0.02162
G1 X29.549 Y29.637 E4.72581
G1 X29.845 Y28.757 E0.02912
G1 X30.047 Y28.486 E0.01059
G1 X30.643 Y27.922 E0.02573
G1 X30.976 Y27.737 E0.01196
G1 X31.640 Y27.549 E0.02163
G1 X122.368 Y27.553 E2.84471
G1 X122.811 Y27.650 E0.01424
G1 X123.259 Y27.858 E0.01548
G1 X123.950 Y28.483 E0.02920
G1 X124.262 Y28.971 E0.01818
G1 X124.451 Y29.640 E0.02179
G1 X124.451 Y180.303 E4.72393
G1 X124.074 Y180.303 F7200.000
G1 F2100
G1 X123.834 Y181.044 E0.02441
G1 X123.679 Y181.254 E0.00819
G1 X123.149 Y181.763 E0.02305
G1 X122.894 Y181.909 E0.00919
G1 X122.332 Y182.074 E0.01838
G1 X31.668 Y182.074 E2.84271
G1 X30.956 Y181.834 E0.02355
G1 X30.746 Y181.679 E0.00819
G1 X30.237 Y181.149 E0.02305
G1 X30.091 Y180.894 E0.00919
G1 X29.926 Y180.332 E0.01838
G1 X29.926 Y29.668 E4.72397
G1 X30.166 Y28.956 E0.02355
G1 X30.321 Y28.746 E0.00819
G1 X30.851 Y28.237 E0.02305
G1 X31.106 Y28.091 E0.00919
G1 X31.668 Y27.926 E0.01838
G1 X122.346 Y27.930 E2.84313
G1 X122.705 Y28.013 E0.01157
G1 X123.071 Y28.185 E0.01268
G1 X123.676 Y28.743 E0.02580
G1 X123.908 Y29.105 E0.01347
G1 X124.074 Y29.668 E0.01841
G1 X124.074 Y180.243 E4.72117
G1 X123.512 Y180.846 F7200.000
G1 F2100
G1 X123.403 Y180.996 E0.00580
G1 X122.936 Y181.451 E0.02044
G1 X122.759 Y181.556 E0.00643
G1 X122.302 Y181.697 E0.01500
G1 X31.699 Y181.697 E2.84081
G1 X31.154 Y181.512 E0.01806
G1 X31.004 Y181.403 E0.00580
G1 X30.549 Y180.936 E0.02044
G1 X30.444 Y180.759 E0.00643
G1 X30.303 Y180.302 E0.01500
G1 X30.303 Y29.699 E4.72207
G1 X30.488 Y29.154 E0.01806
G1 X30.597 Y29.004 E0.00580
G1 X31.064 Y28.549 E0.02044
G1 X31.241 Y28.444 E0.00643
G1 X31.698 Y28.303 E0.01500
G1 X122.324 Y28.307 E2.84152
G1 X122.562 Y28.362 E0.00767
G1 X122.882 Y28.513 E0.01109
G1 X123.401 Y29.001 E0.02233
G1 X123.556 Y29.242 E0.00898
G1 X123.697 Y29.698 E0.01495
G1 X123.697 Y180.301 E4.72207
G1 X123.531 Y180.790 E0.01618
G1 X123.188 Y180.652 F7200.000
G1 F2100
G1 X123.125 Y180.741 E0.00343
G1 X122.718 Y181.144 E0.01795
G1 X122.617 Y181.206 E0.00371
G1 X122.271 Y181.320 E0.01144
G1 X31.731 Y181.320 E2.83882
G1 X31.348 Y181.188 E0.01270
G1 X31.259 Y181.125 E0.00343
G1 X30.856 Y180.718 E0.01795
G1 X30.794 Y180.617 E0.00371
G1 X30.680 Y180.271 E0.01144
G1 X30.680 Y29.731 E4.72007
G1 X30.812 Y29.348 E0.01270
G1 X30.875 Y29.259 E0.00343
G1 X31.282 Y28.856 E0.01795
G1 X31.383 Y28.794 E0.00371
G1 X31.729 Y28.680 E0.01144
G1 X122.302 Y28.684 E2.83984
G1 X122.419 Y28.711 E0.00377
G1 X122.692 Y28.840 E0.00947
G1 X123.123 Y29.257 E0.01880
G1 X123.207 Y29.385 E0.00479
G1 X123.320 Y29.729 E0.01136
G1 X123.320 Y180.269 E4.72007
G1 X123.207 Y180.595 E0.01081
G1 X122.861 Y180.463 F7200.000
G1 F2100
G1 X122.490 Y180.843 E0.01666
G1 X122.236 Y180.943 E0.00856
G1 X31.764 Y180.943 E2.83666
G1 X31.510 Y180.843 E0.00856
G1 X31.139 Y180.463 E0.01666
G1 X31.057 Y180.236 E0.00757
G1 X31.057 Y29.764 E4.71792
G1 X31.157 Y29.510 E0.00856
G1 X31.537 Y29.139 E0.01666
G1 X31.764 Y29.057 E0.00757
G1 X122.250 Y29.057 E2.83710
G1 X122.500 Y29.167 E0.00856
G1 X122.861 Y29.537 E0.01622
G1 X122.943 Y29.764 E0.00757
G1 X122.943 Y180.236 E4.71792
G1 X122.881 Y180.406 E0.00569
G1 X122.537 Y180.263 F7200.000
G1 F2100
G1 X122.263 Y180.537 E0.01215
G1 X122.194 Y180.566 E0.00235
G1 X31.806 Y180.566 E2.83403
G1 X31.737 Y180.537 E0.00235
G1 X31.463 Y180.263 E0.01215
G1 X31.434 Y180.194 E0.00235
G1 X31.434 Y29.806 E4.71529
G1 X31.463 Y29.737 E0.00235
G1 X31.737 Y29.463 E0.01215
G1 X31.806 Y29.434 E0.00235
G1 X122.194 Y29.434 E2.83403
G1 X122.263 Y29.463 E0.00235
G1 X122.537 Y29.737 E0.01215
G1 X122.566 Y29.806 E0.00235
G1 X122.560 Y180.208 E4.71573
G1 X122.189 Y180.078 F7200.000
G1 F2100
G1 X122.078 Y180.189 E0.00490
