; generated by Slic3r 1.37.1-prusa3d-win64 on 2017-10-02 at 15:59:26

; 

; external perimeters extrusion width = 0.45mm
; perimeters extrusion width = 0.45mm
; infill extrusion width = 0.45mm
; solid infill extrusion width = 0.45mm
; top infill extrusion width = 0.45mm
; support material extrusion width = 0.35mm
; first layer extrusion width = 0.42mm

M107
M115 U3.0.12 ; tell printer latest fw version
M83  ; extruder relative mode
M104 S230 ; set extruder temp
M140 S85 ; set bed temp
M190 S85 ; wait for bed temp
M109 S230 ; wait for extruder temp
G28 W ; home all without mesh bed level
G80 ; mesh bed leveling
G1 Y-3.0 F1000.0 ; go outside pritn area
G1 X60.0 E9.0  F1000.0 ; intro line
G1 X100.0 E12.5  F1000.0 ; intro line
; Filament gcode

G21 ; set units to millimeters
G90 ; use absolute coordinates
M83 ; use relative distances for extrusion
G1 E-0.80000 F2100.00000
G1 Z0.200 F7200.000
G1 X99.842 Y75.081 F7200.000
G1 E0.80000 F2100.00000
M204 S1000
G1 F2100
G1 X100.331 Y74.483 E0.02423
G1 X100.905 Y73.958 E0.02441
G1 X101.544 Y73.524 E0.02423
G1 X102.239 Y73.186 E0.02423
G1 X102.976 Y72.951 E0.02423
G1 X103.743 Y72.823 E0.02441
G1 X138.935 Y72.801 E1.10339
G1 X146.706 Y72.976 E0.24373
G1 X148.019 Y73.198 E0.04174
G1 X149.182 Y73.704 E0.03978
G1 X150.195 Y74.469 E0.03978
G1 X151.000 Y75.450 E0.03978
G1 X151.553 Y76.592 E0.03978
G1 X151.773 Y77.457 E0.02799
G1 X151.848 Y78.348 E0.02803
G1 X151.847 Y107.682 E0.91975
G1 X151.772 Y108.531 E0.02674
G1 X151.564 Y109.358 E0.02674
G1 X139.154 Y135.652 E0.91165
G1 X138.315 Y136.822 E0.04513
G1 X135.683 Y139.326 E0.11391
G1 X134.965 Y139.856 E0.02799
G1 X134.169 Y140.260 E0.02799
G1 X133.317 Y140.527 E0.02799
G1 X132.427 Y140.649 E0.02817
G1 X117.721 Y140.656 E0.46110
G1 X116.895 Y140.578 E0.02602
G1 X116.090 Y140.374 E0.02602
G1 X115.111 Y139.929 E0.03371
G1 X114.240 Y139.299 E0.03371
G1 X111.645 Y136.829 E0.11234
G1 X110.821 Y135.691 E0.04406
G1 X99.315 Y109.630 E0.89322
G1 X99.041 Y108.846 E0.02602
G1 X98.861 Y107.499 E0.04264
G1 X98.860 Y78.161 E0.91987
G1 X98.933 Y77.300 E0.02709
G1 X99.144 Y76.456 E0.02727
G1 X99.443 Y75.743 E0.02423
G1 X99.811 Y75.133 E0.02235
G1 F5760
G1 X100.331 Y74.483 E-0.28822
G1 F5760
G1 X100.905 Y73.958 E-0.26961
G1 F5760
G1 X101.388 Y73.630 E-0.20217
G1 E-0.04000 F2100.00000
G1 X115.927 Y97.385 F7200.000
G1 E0.80000 F2100.00000
G1 F2100
G1 X119.793 Y97.377 E0.12122
G1 X121.463 Y97.409 E0.05237
G1 X122.248 Y97.608 E0.02538
G1 X123.247 Y98.134 E0.03542
G1 X124.119 Y98.974 E0.03796
G1 X124.721 Y100.041 E0.03840
G1 X125.249 Y100.041 E0.01654
G1 X125.810 Y99.003 E0.03699
G1 X126.573 Y98.243 E0.03375
G1 X127.204 Y97.823 E0.02378
G1 X128.329 Y97.437 E0.03729
G1 X134.784 Y97.387 E0.20239
G1 X134.790 Y77.678 E0.61794
G1 X134.956 Y76.900 E0.02496
G1 X135.321 Y76.114 E0.02719
G1 X136.213 Y75.100 E0.04233
G1 X137.194 Y74.499 E0.03608
G1 X138.191 Y74.231 E0.03236
G1 X139.104 Y74.229 E0.02861
G1 X139.358 Y74.200 E0.00804
G1 X146.929 Y74.213 E0.23737
G1 X147.940 Y74.448 E0.03257
G1 X148.916 Y74.975 E0.03477
G1 X149.745 Y75.780 E0.03623
G1 X150.297 Y76.698 E0.03359
G1 X150.601 Y77.819 E0.03640
G1 X150.610 Y108.134 E0.95051
G1 X150.458 Y108.872 E0.02362
G1 X149.970 Y109.859 E0.03454
G1 X149.173 Y110.726 E0.03692
G1 X148.201 Y111.317 E0.03566
G1 X147.349 Y111.563 E0.02781
G1 X146.295 Y111.584 E0.03306
G1 X146.041 Y111.614 E0.00801
G1 X138.551 Y111.614 E0.23484
G1 X138.523 Y133.803 E0.69572
G1 X138.239 Y134.757 E0.03120
G1 X137.727 Y135.586 E0.03055
G1 X136.848 Y136.420 E0.03801
G1 X135.973 Y136.886 E0.03108
G1 X135.593 Y137.614 E0.02573
G1 X134.889 Y138.400 E0.03309
G1 X133.886 Y139.063 E0.03770
G1 X132.567 Y139.428 E0.04291
G1 X117.399 Y139.428 E0.47557
G1 X116.174 Y139.110 E0.03969
G1 X115.245 Y138.552 E0.03397
G1 X114.457 Y137.747 E0.03532
G1 X113.996 Y136.877 E0.03086
G1 X113.144 Y136.447 E0.02995
G1 X112.165 Y135.509 E0.04249
G1 X111.689 Y134.696 E0.02956
G1 X111.422 Y133.745 E0.03095
G1 X111.402 Y111.615 E0.69389
G1 X103.460 Y111.560 E0.24901
G1 X102.446 Y111.229 E0.03344
G1 X101.541 Y110.634 E0.03396
G1 X100.802 Y109.822 E0.03445
G1 X100.319 Y108.885 E0.03304
G1 X100.090 Y107.802 E0.03471
G1 X100.110 Y77.592 E0.94723
G1 X100.300 Y76.809 E0.02525
G1 X100.882 Y75.756 E0.03774
G1 X101.657 Y74.989 E0.03419
G1 X102.520 Y74.490 E0.03123
G1 X103.514 Y74.231 E0.03223
G1 X104.421 Y74.229 E0.02842
G1 X104.683 Y74.199 E0.00828
G1 X112.415 Y74.232 E0.24244
G1 X113.252 Y74.449 E0.02711
G1 X114.055 Y74.855 E0.02820
G1 X115.163 Y75.916 E0.04811
G1 X115.701 Y76.942 E0.03632
G1 X115.927 Y78.008 E0.03417
G1 X115.927 Y97.325 E0.60567
G1 X115.550 Y97.763 F7200.000
G1 F2100
G1 X119.792 Y97.754 E0.13301
G1 X121.433 Y97.785 E0.05147
G1 X122.132 Y97.967 E0.02263
G1 X123.005 Y98.425 E0.03092
G1 X123.837 Y99.226 E0.03621
G1 X124.382 Y100.209 E0.03524
G1 X124.450 Y100.418 E0.00689
G1 X125.476 Y100.418 E0.03218
G1 X126.098 Y99.249 E0.04151
G1 X126.800 Y98.544 E0.03119
G1 X127.351 Y98.171 E0.02086
G1 X128.422 Y97.803 E0.03552
G1 X134.827 Y97.764 E0.20082
G1 X135.161 Y97.827 E0.01065
G1 X135.167 Y77.699 E0.63109
G1 X135.320 Y77.002 E0.02237
G1 X135.650 Y76.300 E0.02435
G1 X136.475 Y75.372 E0.03890
G1 X137.365 Y74.836 E0.03260
G1 X138.216 Y74.609 E0.02762
G1 X139.128 Y74.606 E0.02858
G1 X139.370 Y74.577 E0.00765
G1 X146.867 Y74.585 E0.23505
G1 X147.784 Y74.792 E0.02950
G1 X148.713 Y75.294 E0.03309
G1 X149.463 Y76.031 E0.03297
G1 X149.960 Y76.868 E0.03053
G1 X150.224 Y77.844 E0.03169
G1 X150.233 Y108.114 E0.94910
G1 X150.095 Y108.769 E0.02100
G1 X149.645 Y109.665 E0.03142
G1 X148.916 Y110.449 E0.03358
G1 X148.030 Y110.980 E0.03238
G1 X147.272 Y111.193 E0.02470
G1 X146.269 Y111.208 E0.03144
G1 X146.029 Y111.237 E0.00758
G1 X138.518 Y111.237 E0.23550
G1 X138.175 Y111.156 E0.01108
G1 X138.153 Y133.724 E0.70761
G1 X137.904 Y134.583 E0.02805
G1 X137.449 Y135.330 E0.02741
G1 X136.608 Y136.128 E0.03636
G1 X135.856 Y136.522 E0.02661
G1 X135.713 Y136.567 E0.00469
G1 X135.295 Y137.381 E0.02869
G1 X134.624 Y138.130 E0.03156
G1 X133.754 Y138.708 E0.03273
G1 X132.540 Y139.051 E0.03955
G1 X117.424 Y139.051 E0.47396
G1 X116.297 Y138.752 E0.03656
G1 X115.498 Y138.271 E0.02924
G1 X114.747 Y137.504 E0.03367
G1 X114.274 Y136.594 E0.03216
G1 X113.382 Y136.153 E0.03122
G1 X112.475 Y135.294 E0.03915
G1 X112.045 Y134.569 E0.02641
G1 X111.792 Y133.668 E0.02934
G1 X111.779 Y111.186 E0.70493
G1 X111.335 Y111.237 E0.01400
G1 X103.547 Y111.192 E0.24420
G1 X102.630 Y110.898 E0.03021
G1 X101.802 Y110.361 E0.03096
G1 X101.125 Y109.626 E0.03132
G1 X100.666 Y108.735 E0.03142
G1 X100.467 Y107.783 E0.03050
G1 X100.482 Y77.656 E0.94463
G1 X100.643 Y76.968 E0.02214
G1 X101.199 Y75.962 E0.03604
G1 X101.867 Y75.303 E0.02941
G1 X102.685 Y74.830 E0.02964
G1 X103.583 Y74.602 E0.02903
G1 X104.442 Y74.606 E0.02695
G1 X104.692 Y74.576 E0.00789
G1 X112.343 Y74.603 E0.23990
G1 X113.137 Y74.809 E0.02570
G1 X113.858 Y75.178 E0.02541
G1 X114.845 Y76.121 E0.04277
G1 X115.339 Y77.048 E0.03294
G1 X115.550 Y78.028 E0.03145
G1 X115.550 Y97.703 E0.61688
G1 X115.173 Y98.141 F7200.000
G1 F2100
G1 X119.791 Y98.131 E0.14480
G1 X121.403 Y98.162 E0.05054
G1 X122.014 Y98.326 E0.01984
G1 X122.763 Y98.715 E0.02648
G1 X123.554 Y99.477 E0.03442
G1 X124.038 Y100.364 E0.03169
G1 X124.152 Y100.795 E0.01398
G1 X125.802 Y100.795 E0.05172
G1 X125.886 Y100.450 E0.01113
G1 X126.417 Y99.452 E0.03545
G1 X127.053 Y98.824 E0.02801
G1 X127.498 Y98.519 E0.01692
G1 X128.515 Y98.170 E0.03373
G1 X134.803 Y98.141 E0.19716
G1 X135.538 Y98.309 E0.02362
G1 X135.544 Y77.721 E0.64552
G1 X135.682 Y77.107 E0.01973
G1 X135.978 Y76.488 E0.02153
G1 X136.735 Y75.647 E0.03546
G1 X137.534 Y75.174 E0.02913
G1 X138.241 Y74.986 E0.02294
G1 X139.153 Y74.983 E0.02859
G1 X139.383 Y74.954 E0.00726
G1 X146.807 Y74.958 E0.23277
G1 X147.631 Y75.138 E0.02647
G1 X148.470 Y75.584 E0.02978
G1 X149.153 Y76.247 E0.02986
G1 X149.604 Y76.995 E0.02737
G1 X149.847 Y77.870 E0.02847
G1 X149.856 Y108.093 E0.94763
G1 X149.732 Y108.665 E0.01833
G1 X149.322 Y109.469 E0.02830
G1 X148.661 Y110.170 E0.03023
G1 X147.862 Y110.642 E0.02909
G1 X147.197 Y110.822 E0.02158
G1 X146.243 Y110.831 E0.02992
G1 X146.016 Y110.860 E0.00717
G1 X138.551 Y110.860 E0.23407
G1 X137.798 Y110.635 E0.02466
G1 X137.783 Y133.647 E0.72153
G1 X137.567 Y134.412 E0.02493
G1 X137.170 Y135.075 E0.02421
G1 X136.368 Y135.836 E0.03466
G1 X135.708 Y136.174 E0.02327
G1 X135.408 Y136.251 E0.00971
G1 X135.346 Y136.456 E0.00671
G1 X134.997 Y137.148 E0.02431
G1 X134.359 Y137.861 E0.03002
G1 X133.621 Y138.354 E0.02781
G1 X132.513 Y138.674 E0.03615
G1 X117.449 Y138.674 E0.47231
G1 X116.421 Y138.395 E0.03340
G1 X115.751 Y137.991 E0.02456
G1 X115.037 Y137.261 E0.03199
G1 X114.526 Y136.255 E0.03540
G1 X114.303 Y136.195 E0.00722
G1 X113.620 Y135.859 E0.02387
G1 X112.755 Y135.039 E0.03738
G1 X112.384 Y134.402 E0.02310
G1 X112.163 Y133.594 E0.02628
G1 X112.156 Y110.837 E0.71351
G1 X111.548 Y110.831 E0.01907
G1 X111.323 Y110.860 E0.00709
G1 X103.635 Y110.824 E0.24108
G1 X102.770 Y110.547 E0.02847
G1 X102.030 Y110.060 E0.02779
G1 X101.422 Y109.392 E0.02832
G1 X101.014 Y108.588 E0.02826
G1 X100.844 Y107.764 E0.02637
G1 X100.854 Y77.717 E0.94212
G1 X100.987 Y77.124 E0.01906
G1 X101.484 Y76.210 E0.03259
G1 X102.114 Y75.590 E0.02773
G1 X102.849 Y75.171 E0.02654
G1 X103.605 Y74.980 E0.02445
G1 X104.466 Y74.983 E0.02700
G1 X104.702 Y74.953 E0.00745
G1 X112.274 Y74.974 E0.23741
G1 X112.984 Y75.155 E0.02299
G1 X113.663 Y75.501 E0.02388
G1 X114.526 Y76.325 E0.03741
G1 X114.993 Y77.202 E0.03115
G1 X115.173 Y78.048 E0.02713
G1 X115.173 Y98.081 E0.62812
G1 X114.796 Y98.593 F7200.000
G1 F2100
G1 X115.161 Y98.518 E0.01170
G1 X119.790 Y98.508 E0.14512
G1 X121.371 Y98.538 E0.04958
G1 X121.894 Y98.683 E0.01703
G1 X122.522 Y99.006 E0.02213
G1 X123.271 Y99.727 E0.03259
G1 X123.693 Y100.519 E0.02813
G1 X123.854 Y101.172 E0.02110
G1 X126.113 Y101.172 E0.07082
G1 X126.233 Y100.601 E0.01829
G1 X126.735 Y99.656 E0.03356
G1 X127.304 Y99.106 E0.02480
G1 X127.646 Y98.867 E0.01308
G1 X128.608 Y98.537 E0.03190
G1 X134.781 Y98.518 E0.19355
G1 X135.467 Y98.682 E0.02213
G1 X135.915 Y98.904 E0.01565
G1 X135.921 Y77.743 E0.66347
G1 X136.044 Y77.215 E0.01703
G1 X136.305 Y76.678 E0.01871
G1 X136.993 Y75.923 E0.03201
G1 X137.701 Y75.513 E0.02566
G1 X138.267 Y75.363 E0.01835
G1 X139.180 Y75.361 E0.02864
G1 X139.396 Y75.331 E0.00685
G1 X146.749 Y75.331 E0.23054
G1 X147.481 Y75.485 E0.02346
G1 X148.229 Y75.875 E0.02646
G1 X148.845 Y76.466 E0.02676
G1 X149.249 Y77.125 E0.02423
G1 X149.470 Y77.897 E0.02519
G1 X149.478 Y108.072 E0.94610
G1 X149.369 Y108.559 E0.01565
G1 X149.029 Y109.230 E0.02360
G1 X148.406 Y109.891 E0.02849
G1 X147.696 Y110.302 E0.02571
G1 X147.126 Y110.451 E0.01847
G1 X146.217 Y110.454 E0.02852
G1 X146.003 Y110.483 E0.00677
G1 X138.582 Y110.483 E0.23269
G1 X137.421 Y110.116 E0.03817
G1 X137.413 Y133.569 E0.73536
G1 X137.211 Y134.286 E0.02334
G1 X136.890 Y134.821 E0.01957
G1 X136.171 Y135.513 E0.03129
G1 X135.559 Y135.826 E0.02157
G1 X135.101 Y135.931 E0.01473
G1 X134.998 Y136.308 E0.01225
G1 X134.697 Y136.918 E0.02133
G1 X134.126 Y137.564 E0.02704
G1 X133.485 Y138.001 E0.02434
G1 X132.485 Y138.297 E0.03267
G1 X117.476 Y138.297 E0.47062
G1 X116.548 Y138.039 E0.03019
G1 X116.001 Y137.708 E0.02003
G1 X115.357 Y137.060 E0.02866
G1 X114.941 Y136.265 E0.02812
G1 X114.862 Y135.946 E0.01030
G1 X114.445 Y135.845 E0.01344
G1 X113.857 Y135.564 E0.02043
G1 X113.034 Y134.784 E0.03556
G1 X112.741 Y134.279 E0.01829
G1 X112.533 Y133.519 E0.02473
G1 X112.533 Y110.464 E0.72286
G1 X111.523 Y110.454 E0.03167
G1 X111.311 Y110.483 E0.00672
G1 X103.719 Y110.456 E0.23803
G1 X102.952 Y110.217 E0.02519
G1 X102.292 Y109.787 E0.02470
G1 X101.718 Y109.158 E0.02670
G1 X101.363 Y108.443 E0.02504
G1 X101.221 Y107.746 E0.02231
G1 X101.227 Y77.774 E0.93972
G1 X101.333 Y77.276 E0.01597
G1 X101.771 Y76.456 E0.02914
G1 X102.323 Y75.904 E0.02447
G1 X103.013 Y75.511 E0.02492
G1 X103.627 Y75.357 E0.01984
G1 X104.491 Y75.360 E0.02710
G1 X104.712 Y75.330 E0.00700
G1 X112.203 Y75.345 E0.23487
G1 X112.870 Y75.515 E0.02156
G1 X113.465 Y75.824 E0.02102
G1 X114.208 Y76.529 E0.03212
G1 X114.648 Y77.355 E0.02933
G1 X114.796 Y78.067 E0.02281
G1 X114.796 Y98.533 E0.64170
G1 X114.419 Y99.078 F7200.000
G1 F2100
G1 X115.187 Y98.895 E0.02477
G1 X119.789 Y98.885 E0.14428
G1 X121.338 Y98.915 E0.04858
G1 X121.772 Y99.040 E0.01418
G1 X122.281 Y99.298 E0.01788
G1 X122.986 Y99.977 E0.03069
G1 X123.347 Y100.670 E0.02451
G1 X123.455 Y101.127 E0.01471
G1 X123.466 Y101.549 E0.01324
G1 X126.481 Y101.549 E0.09455
G1 X126.488 Y101.236 E0.00981
G1 X126.581 Y100.748 E0.01558
G1 X127.020 Y99.905 E0.02981
G1 X127.555 Y99.388 E0.02332
G1 X127.837 Y99.193 E0.01077
G1 X128.698 Y98.904 E0.02848
G1 X134.758 Y98.895 E0.18999
G1 X135.352 Y99.042 E0.01918
G1 X135.920 Y99.342 E0.02015
G1 X136.292 Y99.649 E0.01511
G1 X136.298 Y77.765 E0.68614
G1 X136.393 Y77.360 E0.01304
G1 X136.632 Y76.868 E0.01716
G1 X137.248 Y76.202 E0.02846
G1 X137.865 Y75.853 E0.02220
G1 X138.292 Y75.740 E0.01386
G1 X139.209 Y75.738 E0.02876
G1 X139.411 Y75.708 E0.00640
G1 X146.730 Y75.708 E0.22949
G1 X147.333 Y75.832 E0.01931
G1 X147.991 Y76.168 E0.02315
G1 X148.539 Y76.687 E0.02367
G1 X148.895 Y77.258 E0.02110
G1 X149.093 Y77.925 E0.02182
G1 X149.101 Y108.049 E0.94451
G1 X149.007 Y108.451 E0.01293
G1 X148.736 Y108.992 E0.01898
G1 X148.152 Y109.611 E0.02670
G1 X147.534 Y109.960 E0.02224
G1 X147.059 Y110.080 E0.01536
G1 X146.190 Y110.076 E0.02726
G1 X145.988 Y110.106 E0.00638
G1 X138.612 Y110.106 E0.23127
G1 X137.613 Y109.780 E0.03297
G1 X137.044 Y109.379 E0.02181
G1 X137.044 Y133.492 E0.75603
G1 X136.855 Y134.159 E0.02174
G1 X136.609 Y134.569 E0.01500
G1 X135.973 Y135.191 E0.02787
G1 X135.411 Y135.479 E0.01981
G1 X134.794 Y135.608 E0.01976
G1 X134.650 Y136.163 E0.01798
G1 X134.397 Y136.689 E0.01828
G1 X133.858 Y137.297 E0.02549
G1 X133.346 Y137.650 E0.01949
G1 X132.457 Y137.920 E0.02914
G1 X117.502 Y137.920 E0.46889
G1 X116.676 Y137.684 E0.02693
G1 X116.250 Y137.424 E0.01565
G1 X115.677 Y136.858 E0.02525
G1 X115.288 Y136.115 E0.02630
G1 X115.171 Y135.581 E0.01714
G1 X114.922 Y135.572 E0.00781
G1 X114.588 Y135.495 E0.01075
G1 X114.048 Y135.237 E0.01876
G1 X113.315 Y134.532 E0.03189
G1 X113.098 Y134.154 E0.01367
G1 X112.910 Y133.492 E0.02158
G1 X112.910 Y109.965 E0.73768
G1 X112.320 Y110.085 E0.01888
G1 X111.497 Y110.077 E0.02582
G1 X111.297 Y110.106 E0.00634
G1 X103.804 Y110.087 E0.23492
G1 X103.090 Y109.864 E0.02347
G1 X102.552 Y109.514 E0.02012
G1 X102.044 Y108.965 E0.02346
G1 X101.712 Y108.298 E0.02337
G1 X101.598 Y107.727 E0.01823
G1 X101.601 Y77.828 E0.93747
G1 X101.680 Y77.425 E0.01289
G1 X102.058 Y76.702 E0.02557
G1 X102.570 Y76.190 E0.02270
G1 X103.175 Y75.853 E0.02170
G1 X103.649 Y75.734 E0.01533
G1 X104.519 Y75.737 E0.02727
G1 X104.724 Y75.708 E0.00651
G1 X112.136 Y75.717 E0.23239
G1 X112.717 Y75.860 E0.01875
G1 X113.268 Y76.146 E0.01948
G1 X113.889 Y76.734 E0.02681
G1 X114.302 Y77.508 E0.02749
G1 X114.419 Y78.085 E0.01848
G1 X114.419 Y99.018 E0.65635
G1 X114.042 Y99.748 F7200.000
G1 F2100
G1 X114.767 Y99.383 E0.02547
G1 X115.212 Y99.272 E0.01436
G1 X119.589 Y99.263 E0.13724
G1 X119.698 Y99.279 E0.00346
G1 X119.811 Y99.263 E0.00359
G1 X121.260 Y99.284 E0.04543
G1 X121.619 Y99.386 E0.01168
G1 X122.084 Y99.621 E0.01636
G1 X122.700 Y100.224 E0.02702
G1 X122.985 Y100.779 E0.01956
G1 X123.083 Y101.191 E0.01329
G1 X123.089 Y101.926 E0.02304
G1 X126.862 Y101.926 E0.11831
G1 X126.862 Y101.282 E0.02019
G1 X126.931 Y100.892 E0.01242
G1 X127.306 Y100.154 E0.02596
G1 X127.805 Y99.671 E0.02178
G1 X128.026 Y99.520 E0.00839
G1 X128.786 Y99.272 E0.02508
G1 X134.735 Y99.272 E0.18651
G1 X135.196 Y99.386 E0.01489
G1 X135.715 Y99.660 E0.01841
G1 X136.179 Y100.102 E0.02008
G1 X136.400 Y100.435 E0.01254
G1 X136.668 Y100.355 E0.00879
G1 X136.675 Y77.787 E0.70758
G1 X136.741 Y77.506 E0.00904
G1 X136.958 Y77.059 E0.01558
G1 X137.501 Y76.483 E0.02482
G1 X138.026 Y76.195 E0.01877
G1 X138.317 Y76.117 E0.00947
G1 X139.240 Y76.115 E0.02893
G1 X139.427 Y76.085 E0.00593
G1 X140.705 Y76.085 E0.04007
G1 X140.814 Y76.101 E0.00346
G1 X140.923 Y76.085 E0.00346
G1 X146.712 Y76.085 E0.18151
