; generated by Slic3r 1.37.1-prusa3d-win64 on 2017-10-02 at 16:01:16

; 

; external perimeters extrusion width = 0.45mm
; perimeters extrusion width = 0.45mm
; infill extrusion width = 0.45mm
; solid infill extrusion width = 0.45mm
; top infill extrusion width = 0.45mm
; support material extrusion width = 0.35mm
; first layer extrusion width = 0.42mm

M107
M115 U3.0.12 ; tell printer latest fw version
M83  ; extruder relative mode
M104 S230 ; set extruder temp
M140 S85 ; set bed temp
M190 S85 ; wait for bed temp
M109 S230 ; wait for extruder temp
G28 W ; home all without mesh bed level
G80 ; mesh bed leveling
G1 Y-3.0 F1000.0 ; go outside pritn area
G1 X60.0 E9.0  F1000.0 ; intro line
G1 X100.0 E12.5  F1000.0 ; intro line
; Filament gcode

G21 ; set units to millimeters
G90 ; use absolute coordinates
M83 ; use relative distances for extrusion
G1 E-0.80000 F2100.00000
G1 Z0.200 F7200.000
G1 X87.753 Y96.474 F7200.000
G1 E0.80000 F2100.00000
M204 S1000
G1 F2100
G1 X88.609 Y95.289 E0.04584
G1 X89.356 Y94.553 E0.03288
G1 X89.970 Y94.083 E0.02423
G1 X90.707 Y93.677 E0.02638
G1 X91.498 Y93.391 E0.02638
G1 X92.907 Y93.198 E0.04459
G1 X157.081 Y93.198 E2.01213
G1 X158.089 Y93.294 E0.03175
G1 X159.066 Y93.580 E0.03192
G1 X159.967 Y94.042 E0.03175
G1 X160.770 Y94.668 E0.03192
G1 X161.671 Y95.606 E0.04078
G1 X162.263 Y96.504 E0.03371
G1 X162.680 Y97.556 E0.03550
G1 X162.867 Y98.673 E0.03550
G1 X162.877 Y111.057 E0.38831
G1 X162.725 Y112.271 E0.03836
G1 X162.206 Y113.601 E0.04477
G1 X161.355 Y114.748 E0.04477
G1 X160.627 Y115.462 E0.03198
G1 X160.011 Y115.930 E0.02423
G1 X159.283 Y116.328 E0.02602
G1 X158.502 Y116.609 E0.02602
G1 X157.087 Y116.802 E0.04477
G1 X92.610 Y116.793 E2.02164
G1 X91.771 Y116.677 E0.02656
G1 X90.961 Y116.430 E0.02656
G1 X90.199 Y116.060 E0.02656
G1 X89.505 Y115.574 E0.02656
G1 X88.590 Y114.691 E0.03988
G1 X88.085 Y114.069 E0.02512
G1 X87.631 Y113.281 E0.02853
G1 X87.316 Y112.427 E0.02853
G1 X87.123 Y111.024 E0.04442
G1 X87.123 Y98.948 E0.37862
G1 X87.248 Y97.846 E0.03478
G1 X87.732 Y96.530 E0.04396
G1 F5760
G1 X88.609 Y95.289 E-0.52642
G1 F5760
G1 X89.090 Y94.816 E-0.23358
G1 E-0.04000 F2100.00000
G1 X88.942 Y97.246 F7200.000
G1 E0.80000 F2100.00000
G1 F2100
G1 X89.652 Y96.253 E0.03827
G1 X90.632 Y95.456 E0.03960
G1 X91.790 Y95.013 E0.03887
G1 X92.268 Y94.952 E0.01513
G1 X157.817 Y94.955 E2.05524
G1 X158.627 Y95.131 E0.02597
G1 X159.412 Y95.478 E0.02693
G1 X160.402 Y96.296 E0.04026
G1 X161.118 Y97.386 E0.04089
G1 X161.459 Y98.671 E0.04170
G1 X161.420 Y111.609 E0.40567
G1 X161.057 Y112.754 E0.03765
G1 X160.348 Y113.747 E0.03826
G1 X159.368 Y114.544 E0.03960
G1 X158.211 Y114.987 E0.03886
G1 X157.732 Y115.048 E0.01512
G1 X92.269 Y115.059 E2.05256
G1 X91.031 Y114.746 E0.04002
G1 X89.914 Y114.001 E0.04212
G1 X89.104 Y113.048 E0.03920
G1 X88.632 Y111.902 E0.03887
G1 X88.589 Y111.600 E0.00957
G1 X88.580 Y98.394 E0.41406
G1 X88.924 Y97.303 E0.03587
G1 X89.284 Y97.417 F7200.000
G1 F2100
G1 X89.941 Y96.495 E0.03550
G1 X90.844 Y95.769 E0.03634
G1 X91.860 Y95.384 E0.03407
G1 X92.281 Y95.329 E0.01330
G1 X157.796 Y95.332 E2.05419
G1 X158.526 Y95.494 E0.02343
G1 X159.234 Y95.811 E0.02433
G1 X160.138 Y96.566 E0.03693
G1 X160.785 Y97.565 E0.03731
G1 X161.082 Y98.694 E0.03662
G1 X161.051 Y111.523 E0.40223
G1 X160.707 Y112.611 E0.03577
G1 X160.059 Y113.505 E0.03463
G1 X159.156 Y114.231 E0.03634
G1 X158.140 Y114.616 E0.03406
G1 X157.719 Y114.671 E0.01329
G1 X92.293 Y114.682 E2.05141
G1 X91.158 Y114.389 E0.03674
G1 X90.147 Y113.703 E0.03832
G1 X89.440 Y112.876 E0.03412
G1 X89.001 Y111.822 E0.03578
G1 X88.966 Y111.585 E0.00753
G1 X88.948 Y98.480 E0.41090
G1 X89.266 Y97.474 E0.03307
G1 X89.618 Y97.583 F7200.000
G1 F2100
G1 X90.200 Y96.770 E0.03135
G1 X91.008 Y96.109 E0.03274
G1 X91.933 Y95.755 E0.03106
G1 X92.294 Y95.706 E0.01141
G1 X157.774 Y95.709 E2.05309
G1 X158.422 Y95.858 E0.02083
G1 X159.054 Y96.143 E0.02174
G1 X159.873 Y96.836 E0.03364
G1 X160.429 Y97.692 E0.03200
G1 X160.705 Y98.719 E0.03336
G1 X160.683 Y111.440 E0.39884
G1 X160.382 Y112.417 E0.03206
G1 X159.800 Y113.230 E0.03134
G1 X158.992 Y113.891 E0.03274
G1 X158.067 Y114.245 E0.03106
G1 X157.706 Y114.294 E0.01140
G1 X92.318 Y114.305 E2.05022
G1 X91.287 Y114.033 E0.03341
G1 X90.383 Y113.408 E0.03448
G1 X89.748 Y112.656 E0.03088
G1 X89.370 Y111.741 E0.03101
G1 X89.343 Y111.569 E0.00548
G1 X89.317 Y98.563 E0.40780
G1 X89.600 Y97.640 E0.03025
G1 X89.944 Y97.774 F7200.000
G1 F2100
G1 X90.461 Y97.043 E0.02808
G1 X91.175 Y96.449 E0.02911
G1 X92.008 Y96.125 E0.02803
G1 X92.307 Y96.083 E0.00948
G1 X157.752 Y96.086 E2.05196
G1 X158.316 Y96.220 E0.01818
G1 X158.872 Y96.475 E0.01917
G1 X159.606 Y97.103 E0.03030
G1 X160.095 Y97.869 E0.02850
G1 X160.328 Y98.743 E0.02836
G1 X160.314 Y111.359 E0.39556
G1 X160.056 Y112.226 E0.02834
G1 X159.539 Y112.957 E0.02807
G1 X158.825 Y113.551 E0.02911
G1 X157.992 Y113.875 E0.02803
G1 X157.693 Y113.917 E0.00947
G1 X92.343 Y113.928 E2.04900
G1 X91.419 Y113.679 E0.03001
G1 X90.620 Y113.115 E0.03067
G1 X90.084 Y112.483 E0.02599
G1 X89.737 Y111.655 E0.02812
G1 X89.720 Y111.551 E0.00332
G1 X89.686 Y98.643 E0.40473
G1 X89.927 Y97.832 E0.02652
G1 X90.272 Y97.963 F7200.000
G1 F2100
G1 X90.725 Y97.314 E0.02483
G1 X91.343 Y96.788 E0.02545
G1 X92.085 Y96.495 E0.02500
G1 X92.322 Y96.460 E0.00750
G1 X157.728 Y96.463 E2.05078
G1 X158.207 Y96.581 E0.01546
G1 X158.688 Y96.805 E0.01662
G1 X159.338 Y97.370 E0.02700
G1 X159.739 Y97.997 E0.02336
G1 X159.951 Y98.769 E0.02510
G1 X159.944 Y111.282 E0.39233
G1 X159.728 Y112.037 E0.02462
G1 X159.275 Y112.686 E0.02483
G1 X158.656 Y113.212 E0.02546
G1 X157.915 Y113.505 E0.02500
G1 X157.679 Y113.540 E0.00749
G1 X92.369 Y113.551 E2.04773
G1 X91.554 Y113.325 E0.02653
G1 X90.861 Y112.824 E0.02680
G1 X90.392 Y112.264 E0.02291
G1 X90.097 Y111.530 E0.02481
G1 X90.056 Y98.719 E0.40166
G1 X90.255 Y98.021 E0.02278
G1 F5760
G1 X90.725 Y97.314 E-0.29402
G1 F5760
G1 X91.343 Y96.788 E-0.28118
G1 F5760
G1 X91.840 Y96.592 E-0.18481
G1 E-0.04000 F2100.00000
G1 X92.165 Y96.864 F7200.000
G1 E0.80000 F2100.00000
G1 F2100
G1 X92.337 Y96.837 E0.00545
G1 X157.703 Y96.841 E2.04952
G1 X158.094 Y96.941 E0.01266
G1 X158.501 Y97.134 E0.01412
G1 X159.068 Y97.634 E0.02372
G1 X159.385 Y98.128 E0.01837
G1 X159.574 Y98.796 E0.02179
G1 X159.574 Y111.204 E0.38903
G1 X159.374 Y111.902 E0.02277
G1 X159.010 Y112.417 E0.01979
G1 X158.485 Y112.875 E0.02184
G1 X157.835 Y113.136 E0.02196
G1 X157.663 Y113.163 E0.00544
G1 X92.396 Y113.174 E2.04641
G1 X91.692 Y112.973 E0.02296
G1 X91.106 Y112.536 E0.02292
G1 X90.703 Y112.048 E0.01986
G1 X90.474 Y111.475 E0.01935
G1 X90.426 Y98.797 E0.39749
G1 X90.626 Y98.098 E0.02281
G1 X90.990 Y97.583 E0.01979
G1 X91.515 Y97.125 E0.02184
G1 X92.109 Y96.886 E0.02008
G1 X92.249 Y97.232 F7200.000
G1 F2100
G1 X92.353 Y97.214 E0.00331
G1 X157.678 Y97.218 E2.04821
G1 X157.948 Y97.289 E0.00876
G1 X158.314 Y97.462 E0.01271
G1 X158.797 Y97.897 E0.02036
G1 X159.031 Y98.261 E0.01357
G1 X159.197 Y98.824 E0.01841
G1 X159.197 Y111.176 E0.38727
G1 X159.023 Y111.762 E0.01916
G1 X158.718 Y112.178 E0.01618
G1 X158.311 Y112.539 E0.01705
G1 X157.751 Y112.768 E0.01900
G1 X157.647 Y112.786 E0.00331
G1 X92.424 Y112.797 E2.04500
G1 X91.835 Y112.622 E0.01928
G1 X91.355 Y112.253 E0.01900
G1 X91.015 Y111.835 E0.01688
G1 X90.838 Y111.373 E0.01551
G1 X90.803 Y98.825 E0.39344
G1 X90.977 Y98.238 E0.01918
G1 X91.282 Y97.822 E0.01618
G1 X91.689 Y97.461 E0.01705
G1 X92.194 Y97.254 E0.01712
G1 X92.331 Y97.601 F7200.000
G1 F2100
G1 X157.609 Y97.589 E2.04675
G1 X157.804 Y97.638 E0.00631
G1 X158.126 Y97.791 E0.01116
G1 X158.523 Y98.157 E0.01694
G1 X158.679 Y98.398 E0.00901
G1 X158.820 Y98.854 E0.01495
G1 X158.820 Y111.146 E0.38542
G1 X158.674 Y111.615 E0.01540
G1 X158.432 Y111.932 E0.01251
G1 X158.089 Y112.233 E0.01430
G1 X157.627 Y112.409 E0.01551
G1 X92.454 Y112.420 E2.04344
G1 X91.983 Y112.274 E0.01545
G1 X91.606 Y111.971 E0.01518
G1 X91.356 Y111.670 E0.01227
G1 X91.202 Y111.270 E0.01342
G1 X91.180 Y98.854 E0.38930
G1 X91.326 Y98.385 E0.01541
G1 X91.568 Y98.068 E0.01251
G1 X91.911 Y97.767 E0.01430
G1 X92.275 Y97.623 E0.01228
G1 X92.414 Y97.974 F7200.000
G1 F2100
G1 X157.546 Y97.961 E2.04216
G1 X157.663 Y97.988 E0.00377
G1 X157.936 Y98.118 E0.00949
G1 X158.246 Y98.414 E0.01344
G1 X158.330 Y98.541 E0.00477
G1 X158.443 Y98.886 E0.01136
G1 X158.443 Y111.114 E0.38343
G1 X158.329 Y111.461 E0.01144
G1 X158.148 Y111.684 E0.00899
G1 X157.916 Y111.896 E0.00985
G1 X157.573 Y112.032 E0.01159
G1 X92.486 Y112.043 E2.04076
G1 X92.139 Y111.929 E0.01143
G1 X91.864 Y111.696 E0.01129
G1 X91.670 Y111.459 E0.00963
G1 X91.568 Y111.176 E0.00941
G1 X91.557 Y98.886 E0.38536
G1 X91.671 Y98.539 E0.01144
G1 X91.852 Y98.316 E0.00899
G1 X92.084 Y98.104 E0.00984
G1 X92.358 Y97.996 E0.00926
G1 X92.484 Y98.347 F7200.000
G1 F2100
G1 X92.521 Y98.334 E0.00121
G1 X157.494 Y98.334 E2.03718
G1 X157.744 Y98.444 E0.00856
G1 X157.966 Y98.666 E0.00986
G1 X158.066 Y98.921 E0.00856
G1 X158.066 Y111.079 E0.38123
G1 X157.988 Y111.295 E0.00718
G1 X157.875 Y111.425 E0.00541
G1 X157.693 Y111.589 E0.00768
G1 X157.479 Y111.666 E0.00713
G1 X92.521 Y111.666 E2.03674
G1 X92.307 Y111.589 E0.00713
G1 X92.125 Y111.425 E0.00767
G1 X92.012 Y111.295 E0.00541
G1 X91.934 Y111.079 E0.00718
G1 X91.934 Y98.921 E0.38123
G1 X92.012 Y98.705 E0.00718
G1 X92.125 Y98.575 E0.00541
G1 X92.307 Y98.411 E0.00767
G1 X92.428 Y98.368 E0.00403
G1 X92.390 Y98.843 F7200.000
G1 F2100
G1 X92.493 Y98.740 E0.00455
G1 X92.562 Y98.711 E0.00235
G1 X157.438 Y98.711 E2.03411
G1 X157.507 Y98.740 E0.00235
G1 X157.660 Y98.893 E0.00679
G1 X157.689 Y98.962 E0.00235
G1 X157.689 Y111.038 E0.37860
G1 X157.660 Y111.107 E0.00235
G1 X157.610 Y111.157 E0.00223
G1 X157.507 Y111.260 E0.00455
G1 X157.438 Y111.289 E0.00235
G1 X92.562 Y111.289 E2.03411
G1 X92.493 Y111.260 E0.00235
G1 X92.340 Y111.107 E0.00679
G1 X92.311 Y111.038 E0.00235
G1 X92.311 Y98.962 E0.37860
G1 X92.348 Y98.885 E0.00268
G1 F5760
G1 X92.493 Y98.740 E-0.07109
G1 F5760
G1 X92.562 Y98.711 E-0.02598
G1 F5760
G1 X94.477 Y98.711 E-0.66293
G1 E-0.04000 F2100.00000
G1 X153.460 Y99.110 F7200.000
G1 E0.80000 F2100.00000
G1 F840
G1 X157.290 Y99.110 E0.12009
G1 X157.290 Y110.890 E0.36935
G1 X153.460 Y110.890 E0.12009
G1 X153.460 Y99.170 E0.36747
G1 X153.825 Y99.273 F7200.000
G1 X153.837 Y99.487 F7200.000
G1 F840
G1 X156.913 Y99.487 E0.09644
G1 X156.913 Y103.923 E0.13907
G1 X156.876 Y103.874 E0.00191
G1 X156.546 Y103.621 E0.01303
G1 X156.162 Y103.462 E0.01303
G1 X155.750 Y103.408 E0.01303
G1 X155.338 Y103.462 E0.01303
G1 X154.954 Y103.621 E0.01303
G1 X154.624 Y103.874 E0.01303
G1 X154.371 Y104.204 E0.01303
G1 X154.212 Y104.588 E0.01303
G1 X154.158 Y105.000 E0.01303
G1 X154.212 Y105.412 E0.01303
G1 X154.371 Y105.796 E0.01303
G1 X154.624 Y106.126 E0.01303
G1 X154.954 Y106.379 E0.01303
G1 X155.338 Y106.538 E0.01303
G1 X155.750 Y106.592 E0.01303
G1 X156.162 Y106.538 E0.01303
G1 X156.546 Y106.379 E0.01303
G1 X156.876 Y106.126 E0.01303
G1 X156.913 Y106.077 E0.00191
G1 X156.913 Y110.513 E0.13907
G1 X153.837 Y110.513 E0.09644
G1 X153.837 Y99.547 E0.34383
G1 X154.214 Y99.864 F7200.000
G1 F840
G1 X156.536 Y99.864 E0.07279
G1 X156.536 Y103.209 E0.10487
G1 X156.261 Y103.095 E0.00934
G1 X155.750 Y103.028 E0.01615
G1 X155.239 Y103.095 E0.01615
G1 X154.764 Y103.292 E0.01614
G1 X154.355 Y103.605 E0.01615
G1 X154.214 Y103.789 E0.00727
G1 X154.214 Y99.924 E0.12118
G1 F5760
G1 X156.408 Y99.867 E-0.76000
G1 E-0.04000 F2100.00000
G1 X154.214 Y106.211 F7200.000
G1 E0.80000 F2100.00000
G1 F840
G1 X154.355 Y106.395 E0.00727
G1 X154.764 Y106.708 E0.01614
G1 X155.239 Y106.905 E0.01614
G1 X155.750 Y106.972 E0.01615
G1 X156.261 Y106.905 E0.01615
G1 X156.536 Y106.791 E0.00934
G1 X156.536 Y110.136 E0.10487
G1 X154.214 Y110.136 E0.07279
G1 X154.214 Y106.271 E0.12118
G1 X154.893 Y105.857 F7200.000
G1 F840
G1 X154.701 Y105.606 E0.00992
G1 X154.579 Y105.314 E0.00992
G1 X154.538 Y105.000 E0.00992
G1 X154.579 Y104.686 E0.00992
G1 X154.701 Y104.394 E0.00992
G1 X154.893 Y104.143 E0.00992
G1 X155.144 Y103.951 E0.00992
G1 X155.436 Y103.829 E0.00992
G1 X155.750 Y103.788 E0.00992
G1 X156.064 Y103.829 E0.00992
G1 X156.356 Y103.951 E0.00992
G1 X156.607 Y104.143 E0.00992
G1 X156.799 Y104.394 E0.00992
G1 X156.921 Y104.686 E0.00992
G1 X156.962 Y105.000 E0.00992
G1 X156.921 Y105.314 E0.00992
G1 X156.799 Y105.606 E0.00992
G1 X156.607 Y105.857 E0.00992
G1 X156.356 Y106.049 E0.00992
G1 X156.064 Y106.171 E0.00992
G1 X155.750 Y106.212 E0.00992
G1 X155.436 Y106.171 E0.00992
G1 X155.144 Y106.049 E0.00992
G1 X154.941 Y105.893 E0.00804
G1 X154.588 Y105.939 F7200.000
G1 F5760
G1 X154.701 Y105.606 E-0.12976
G1 F5760
G1 X154.579 Y105.314 E-0.10957
G1 F5760
G1 X154.538 Y105.000 E-0.10957
G1 F5760
G1 X154.579 Y104.686 E-0.10956
G1 F5760
G1 X154.701 Y104.394 E-0.10957
G1 F5760
G1 X154.893 Y104.143 E-0.10957
G1 F5760
G1 X155.082 Y103.998 E-0.08241
G1 E-0.04000 F2100.00000
G1 X130.040 Y110.890 F7200.000
G1 E0.80000 F2100.00000
G1 F1050
G1 X119.960 Y110.890 E0.31605
G1 X119.960 Y99.110 E0.36935
G1 X130.040 Y99.110 E0.31605
G1 X130.040 Y110.830 E0.36747
G1 X129.656 Y110.777 F7200.000
G1 X129.663 Y110.513 F7200.000
G1 F840
G1 X120.337 Y110.513 E0.29241
G1 X120.337 Y99.487 E0.34571
G1 X129.663 Y99.487 E0.29241
G1 X129.663 Y110.453 E0.34383
G1 X129.286 Y110.136 F7200.000
G1 F1680
G1 X120.714 Y110.136 E0.26876
G1 X120.714 Y106.211 E0.12306
G1 X120.855 Y106.395 E0.00727
G1 X121.264 Y106.708 E0.01614
G1 X121.739 Y106.905 E0.01615
G1 X122.250 Y106.972 E0.01615
G1 X122.761 Y106.905 E0.01615
G1 X123.236 Y106.708 E0.01614
G1 X123.645 Y106.395 E0.01614
G1 X123.958 Y105.986 E0.01614
G1 X124.155 Y105.511 E0.01614
G1 X124.222 Y105.000 E0.01614
G1 X124.155 Y104.489 E0.01614
G1 X123.958 Y104.014 E0.01614
G1 X123.645 Y103.605 E0.01614
G1 X123.236 Y103.292 E0.01615
G1 X122.761 Y103.095 E0.01614
G1 X122.250 Y103.028 E0.01614
G1 X121.739 Y103.095 E0.01615
G1 X121.264 Y103.292 E0.01614
G1 X120.855 Y103.605 E0.01614
G1 X120.714 Y103.789 E0.00727
G1 X120.714 Y99.864 E0.12306
G1 X129.286 Y99.864 E0.26876
G1 X129.286 Y103.789 E0.12306
G1 X129.145 Y103.605 E0.00727
G1 X128.736 Y103.292 E0.01615
G1 X128.261 Y103.095 E0.01614
G1 X127.750 Y103.028 E0.01615
G1 X127.239 Y103.095 E0.01615
G1 X126.764 Y103.292 E0.01614
G1 X126.355 Y103.605 E0.01615
G1 X126.042 Y104.014 E0.01614
G1 X125.845 Y104.489 E0.01615
G1 X125.778 Y105.000 E0.01614
G1 X125.845 Y105.511 E0.01615
G1 X126.042 Y105.986 E0.01614
G1 X126.355 Y106.395 E0.01614
G1 X126.764 Y106.708 E0.01615
G1 X127.239 Y106.905 E0.01614
G1 X127.750 Y106.972 E0.01615
G1 X128.261 Y106.905 E0.01615
G1 X128.736 Y106.708 E0.01614
G1 X129.145 Y106.395 E0.01615
G1 X129.286 Y106.211 E0.00727
G1 X129.286 Y110.076 E0.12118
G1 F5760
G1 X127.092 Y110.091 E-0.76000
G1 E-0.04000 F2100.00000
G1 X128.064 Y106.171 F7200.000
G1 E0.80000 F2100.00000
G1 F840
G1 X127.750 Y106.212 E0.00992
G1 X127.436 Y106.171 E0.00992
G1 X127.144 Y106.049 E0.00992
G1 X126.893 Y105.857 E0.00992
G1 X126.701 Y105.606 E0.00992
G1 X126.579 Y105.314 E0.00992
G1 X126.538 Y105.000 E0.00992
G1 X126.579 Y104.686 E0.00992
G1 X126.701 Y104.394 E0.00992
G1 X126.893 Y104.143 E0.00992
G1 X127.144 Y103.951 E0.00992
G1 X127.436 Y103.829 E0.00992
G1 X127.750 Y103.788 E0.00992
G1 X128.064 Y103.829 E0.00992
G1 X128.356 Y103.951 E0.00992
G1 X128.607 Y104.143 E0.00992
G1 X128.799 Y104.394 E0.00992
G1 X128.921 Y104.686 E0.00992
G1 X128.962 Y105.000 E0.00992
G1 X128.921 Y105.314 E0.00992
G1 X128.799 Y105.606 E0.00992
G1 X128.607 Y105.857 E0.00992
G1 X128.356 Y106.049 E0.00992
G1 X128.119 Y106.148 E0.00804
G1 X127.982 Y106.476 F7200.000
G1 X128.162 Y106.538 F7200.000
G1 F840
G1 X127.750 Y106.592 E0.01303
G1 X127.338 Y106.538 E0.01303
G1 X126.954 Y106.379 E0.01303
G1 X126.624 Y106.126 E0.01303
G1 X126.371 Y105.796 E0.01303
G1 X126.212 Y105.412 E0.01303
G1 X126.158 Y105.000 E0.01303
G1 X126.212 Y104.588 E0.01303
G1 X126.371 Y104.204 E0.01303
G1 X126.624 Y103.874 E0.01303
G1 X126.954 Y103.621 E0.01303
G1 X127.338 Y103.462 E0.01303
G1 X127.750 Y103.408 E0.01303
G1 X128.162 Y103.462 E0.01303
G1 X128.546 Y103.621 E0.01303
G1 X128.876 Y103.874 E0.01303
G1 X129.129 Y104.204 E0.01303
