; generated by Slic3r 1.37.1-prusa3d-win64 on 2017-10-02 at 16:02:19

; 

; external perimeters extrusion width = 0.45mm
; perimeters extrusion width = 0.45mm
; infill extrusion width = 0.45mm
; solid infill extrusion width = 0.45mm
; top infill extrusion width = 0.45mm
; first layer extrusion width = 0.42mm

M107
M115 U3.0.12 ; tell printer latest fw version
M83  ; extruder relative mode
M104 S230 ; set extruder temp
M140 S85 ; set bed temp
M190 S85 ; wait for bed temp
M109 S230 ; wait for extruder temp
G28 W ; home all without mesh bed level
G80 ; mesh bed leveling
G1 Y-3.0 F1000.0 ; go outside pritn area
G1 X60.0 E9.0  F1000.0 ; intro line
G1 X100.0 E12.5  F1000.0 ; intro line
; Filament gcode

G21 ; set units to millimeters
G90 ; use absolute coordinates
M83 ; use relative distances for extrusion
G1 E-0.80000 F2100.00000
G1 Z0.200 F7200.000
G1 X107.716 Y82.977 F7200.000
G1 E0.80000 F2100.00000
M204 S1000
G1 F2100
G1 X108.264 Y82.332 E0.02656
G1 X109.062 Y81.566 E0.03467
G1 X109.823 Y81.037 E0.02906
G1 X110.707 Y80.631 E0.03049
G1 X111.643 Y80.392 E0.03032
G1 X112.488 Y80.323 E0.02656
G1 X137.506 Y80.323 E0.78443
G1 X138.469 Y80.411 E0.03032
G1 X139.400 Y80.670 E0.03032
G1 X140.265 Y81.088 E0.03014
G1 X141.046 Y81.658 E0.03032
G1 X141.977 Y82.591 E0.04131
G1 X142.548 Y83.378 E0.03049
G1 X142.996 Y84.337 E0.03318
G1 X143.248 Y85.365 E0.03318
G1 X143.302 Y86.118 E0.02369
G1 X143.302 Y119.625 E1.05058
G1 X143.237 Y120.458 E0.02620
G1 X143.056 Y121.233 E0.02494
G1 X142.763 Y121.972 E0.02494
G1 X142.363 Y122.660 E0.02494
G1 X141.863 Y123.286 E0.02512
G1 X141.043 Y124.095 E0.03611
G1 X135.057 Y129.246 E0.24760
G1 X134.009 Y129.832 E0.03764
G1 X132.852 Y130.172 E0.03782
G1 X131.951 Y130.252 E0.02835
G1 X129.667 Y130.187 E0.07166
G1 X128.546 Y129.885 E0.03639
G1 X127.522 Y129.352 E0.03621
G1 X126.634 Y128.613 E0.03621
G1 X125.922 Y127.696 E0.03639
G1 X107.286 Y93.820 E1.21229
G1 X106.887 Y92.790 E0.03461
G1 X106.708 Y91.707 E0.03443
G1 X106.698 Y86.079 E0.17645
G1 X106.763 Y85.292 E0.02477
G1 X106.958 Y84.474 E0.02638
G1 X107.278 Y83.696 E0.02638
G1 X107.684 Y83.028 E0.02450
G1 F5760
G1 X108.264 Y82.332 E-0.31390
G1 F5760
G1 X109.062 Y81.566 E-0.38298
G1 F5760
G1 X109.211 Y81.462 E-0.06312
G1 E-0.04000 F2100.00000
G1 X135.554 Y123.663 F7200.000
G1 E0.80000 F2100.00000
G1 F2100
G1 X135.541 Y125.475 E0.05681
G1 X135.166 Y126.673 E0.03938
G1 X134.705 Y127.362 E0.02598
G1 X133.935 Y128.107 E0.03359
G1 X132.800 Y128.684 E0.03994
G1 X132.095 Y128.824 E0.02252
G1 X129.662 Y128.780 E0.07632
G1 X128.971 Y128.561 E0.02272
G1 X128.160 Y128.102 E0.02923
G1 X127.262 Y127.200 E0.03992
G1 X126.771 Y126.303 E0.03204
G1 X126.554 Y125.402 E0.02907
G1 X126.545 Y124.077 E0.04153
G1 X126.189 Y123.874 E0.01282
G1 X125.410 Y123.139 E0.03360
G1 X124.770 Y122.051 E0.03958
G1 X124.541 Y121.037 E0.03257
G1 X124.541 Y118.163 E0.09014
G1 X124.813 Y117.092 E0.03464
G1 X125.355 Y116.185 E0.03311
G1 X125.963 Y115.563 E0.02729
G1 X126.523 Y115.152 E0.02176
G1 X127.660 Y114.726 E0.03807
G1 X132.541 Y114.678 E0.15305
G1 X132.541 Y91.084 E0.73976
G1 X117.455 Y91.084 E0.47301
G1 X117.438 Y91.996 E0.02859
G1 X117.144 Y93.005 E0.03295
G1 X116.609 Y93.861 E0.03167
G1 X115.791 Y94.639 E0.03539
G1 X114.701 Y95.184 E0.03821
G1 X113.995 Y95.324 E0.02255
G1 X111.581 Y95.284 E0.07573
G1 X110.965 Y95.103 E0.02012
G1 X110.398 Y94.835 E0.01967
G1 X109.375 Y93.954 E0.04232
G1 X108.834 Y93.173 E0.02978
G1 X108.512 Y92.290 E0.02947
G1 X108.504 Y85.356 E0.21740
G1 X108.765 Y84.557 E0.02636
G1 X109.244 Y83.721 E0.03021
G1 X110.014 Y82.940 E0.03438
G1 X110.804 Y82.444 E0.02925
G1 X112.156 Y82.066 E0.04403
G1 X137.811 Y82.069 E0.80440
G1 X138.682 Y82.241 E0.02785
G1 X139.502 Y82.597 E0.02802
G1 X140.501 Y83.420 E0.04059
G1 X141.218 Y84.511 E0.04092
G1 X141.559 Y85.796 E0.04170
G1 X141.496 Y120.394 E1.08479
G1 X141.233 Y121.196 E0.02646
G1 X140.713 Y122.086 E0.03232
G1 X139.832 Y122.932 E0.03830
G1 X139.198 Y123.308 E0.02312
G1 X138.135 Y123.638 E0.03490
G1 X135.614 Y123.662 E0.07903
G1 X135.180 Y123.289 F7200.000
G1 F2100
G1 X135.164 Y125.443 E0.06752
G1 X134.815 Y126.532 E0.03586
G1 X134.429 Y127.105 E0.02165
G1 X133.694 Y127.815 E0.03207
G1 X132.656 Y128.335 E0.03640
G1 X132.045 Y128.450 E0.01950
G1 X129.747 Y128.412 E0.07205
G1 X129.136 Y128.222 E0.02006
G1 X128.408 Y127.816 E0.02613
G1 X127.549 Y126.953 E0.03819
G1 X127.115 Y126.147 E0.02871
G1 X126.931 Y125.378 E0.02480
G1 X126.920 Y123.850 E0.04789
G1 X126.429 Y123.582 E0.01754
G1 X125.688 Y122.883 E0.03195
G1 X125.131 Y121.937 E0.03442
G1 X124.918 Y121.015 E0.02966
G1 X124.918 Y118.187 E0.08868
G1 X125.171 Y117.214 E0.03151
G1 X125.665 Y116.401 E0.02985
G1 X126.221 Y115.838 E0.02482
G1 X126.684 Y115.494 E0.01806
G1 X127.698 Y115.102 E0.03410
G1 X132.918 Y115.051 E0.16367
G1 X132.918 Y90.707 E0.76329
G1 X117.080 Y90.707 E0.49658
G1 X117.068 Y91.919 E0.03799
G1 X116.809 Y92.830 E0.02970
G1 X116.330 Y93.607 E0.02863
G1 X115.596 Y94.314 E0.03196
G1 X114.556 Y94.835 E0.03644
G1 X113.945 Y94.950 E0.01951
G1 X111.661 Y94.914 E0.07162
G1 X111.112 Y94.755 E0.01792
G1 X110.583 Y94.505 E0.01836
G1 X109.640 Y93.685 E0.03917
G1 X109.180 Y93.021 E0.02534
G1 X108.878 Y92.192 E0.02767
G1 X108.872 Y85.443 E0.21160
G1 X109.102 Y84.727 E0.02359
G1 X109.559 Y83.930 E0.02878
G1 X110.266 Y83.221 E0.03140
G1 X110.934 Y82.799 E0.02478
G1 X112.183 Y82.443 E0.04072
G1 X137.792 Y82.446 E0.80296
G1 X138.587 Y82.607 E0.02544
G1 X139.325 Y82.931 E0.02527
G1 X140.237 Y83.691 E0.03722
G1 X140.885 Y84.690 E0.03733
G1 X141.182 Y85.820 E0.03664
G1 X141.128 Y120.307 E1.08132
G1 X140.897 Y121.024 E0.02362
G1 X140.401 Y121.872 E0.03080
G1 X139.589 Y122.643 E0.03511
G1 X139.026 Y122.971 E0.02044
G1 X138.103 Y123.261 E0.03034
G1 X135.240 Y123.289 E0.08978
G1 X134.805 Y122.916 F7200.000
G1 F2100
G1 X134.788 Y125.410 E0.07820
G1 X134.466 Y126.388 E0.03228
G1 X134.154 Y126.847 E0.01739
G1 X133.454 Y127.523 E0.03053
G1 X132.515 Y127.984 E0.03279
G1 X131.998 Y128.076 E0.01648
G1 X129.831 Y128.043 E0.06795
G1 X129.298 Y127.881 E0.01745
G1 X128.655 Y127.531 E0.02296
G1 X127.836 Y126.708 E0.03639
G1 X127.460 Y125.993 E0.02533
G1 X127.308 Y125.354 E0.02061
G1 X127.296 Y123.620 E0.05436
G1 X126.668 Y123.289 E0.02224
G1 X125.966 Y122.627 E0.03028
G1 X125.491 Y121.822 E0.02930
G1 X125.295 Y120.993 E0.02671
G1 X125.295 Y118.212 E0.08719
G1 X125.527 Y117.340 E0.02831
G1 X125.973 Y116.619 E0.02658
G1 X126.479 Y116.113 E0.02241
G1 X126.848 Y115.834 E0.01453
G1 X127.738 Y115.479 E0.03003
G1 X133.295 Y115.425 E0.17424
G1 X133.295 Y90.330 E0.78682
G1 X116.703 Y90.330 E0.52022
G1 X116.697 Y91.844 E0.04747
G1 X116.473 Y92.658 E0.02647
G1 X116.050 Y93.353 E0.02552
G1 X115.355 Y94.022 E0.03024
G1 X114.415 Y94.484 E0.03284
G1 X113.898 Y94.576 E0.01649
G1 X111.740 Y94.545 E0.06766
G1 X111.259 Y94.408 E0.01569
G1 X110.768 Y94.176 E0.01701
G1 X109.908 Y93.418 E0.03593
G1 X109.505 Y92.829 E0.02237
G1 X109.244 Y92.096 E0.02441
G1 X109.240 Y85.529 E0.20592
G1 X109.440 Y84.896 E0.02079
G1 X109.873 Y84.141 E0.02731
G1 X110.517 Y83.503 E0.02840
G1 X111.066 Y83.153 E0.02043
G1 X112.210 Y82.820 E0.03736
G1 X137.773 Y82.823 E0.80152
G1 X138.454 Y82.960 E0.02178
G1 X139.148 Y83.265 E0.02376
G1 X139.973 Y83.961 E0.03383
G1 X140.529 Y84.817 E0.03201
G1 X140.805 Y85.845 E0.03338
G1 X140.760 Y120.221 E1.07785
G1 X140.560 Y120.855 E0.02083
G1 X140.121 Y121.618 E0.02759
G1 X139.346 Y122.353 E0.03349
G1 X138.856 Y122.634 E0.01771
G1 X138.071 Y122.885 E0.02585
G1 X134.865 Y122.915 E0.10051
G1 X134.429 Y122.542 F7200.000
G1 F2100
G1 X134.420 Y125.323 E0.08719
G1 X134.137 Y126.201 E0.02891
G1 X133.877 Y126.590 E0.01467
G1 X133.214 Y127.230 E0.02890
G1 X132.378 Y127.632 E0.02908
G1 X131.954 Y127.701 E0.01347
G1 X129.912 Y127.674 E0.06403
G1 X129.461 Y127.540 E0.01476
G1 X128.860 Y127.212 E0.02147
G1 X128.157 Y126.507 E0.03122
G1 X127.806 Y125.840 E0.02365
G1 X127.680 Y125.291 E0.01766
G1 X127.672 Y123.388 E0.05968
G1 X126.907 Y122.996 E0.02696
G1 X126.245 Y122.372 E0.02852
G1 X125.832 Y121.658 E0.02585
G1 X125.672 Y120.972 E0.02210
G1 X125.672 Y118.238 E0.08571
G1 X125.883 Y117.467 E0.02508
G1 X126.255 Y116.870 E0.02203
G1 X126.736 Y116.390 E0.02132
G1 X127.053 Y116.151 E0.01245
G1 X127.842 Y115.843 E0.02655
G1 X133.672 Y115.799 E0.18279
G1 X133.672 Y89.953 E0.81039
G1 X116.327 Y89.953 E0.54383
G1 X116.320 Y91.816 E0.05841
G1 X116.118 Y92.530 E0.02325
G1 X115.771 Y93.098 E0.02088
G1 X115.116 Y93.729 E0.02851
G1 X114.278 Y94.132 E0.02915
G1 X113.854 Y94.201 E0.01348
G1 X111.818 Y94.175 E0.06386
G1 X111.405 Y94.060 E0.01343
G1 X110.954 Y93.847 E0.01563
G1 X110.178 Y93.154 E0.03263
G1 X109.833 Y92.640 E0.01940
G1 X109.610 Y92.003 E0.02117
G1 X109.609 Y85.612 E0.20037
G1 X109.778 Y85.065 E0.01795
G1 X110.187 Y84.351 E0.02579
G1 X110.766 Y83.787 E0.02537
G1 X111.200 Y83.506 E0.01621
G1 X112.238 Y83.197 E0.03395
G1 X137.754 Y83.201 E0.80003
G1 X138.357 Y83.325 E0.01932
G1 X138.968 Y83.598 E0.02099
G1 X139.706 Y84.228 E0.03042
G1 X140.195 Y84.994 E0.02850
G1 X140.428 Y85.869 E0.02838
G1 X140.391 Y120.138 E1.07447
G1 X140.222 Y120.686 E0.01799
G1 X139.808 Y121.405 E0.02601
G1 X139.107 Y122.062 E0.03013
G1 X138.688 Y122.296 E0.01504
G1 X138.038 Y122.508 E0.02145
G1 X134.489 Y122.542 E0.11128
G1 X134.051 Y122.169 F7200.000
G1 F2100
G1 X134.051 Y125.239 E0.09626
G1 X133.807 Y126.017 E0.02557
G1 X133.599 Y126.334 E0.01187
G1 X132.975 Y126.937 E0.02721
G1 X132.246 Y127.278 E0.02524
G1 X131.916 Y127.326 E0.01047
G1 X129.991 Y127.305 E0.06035
G1 X129.622 Y127.199 E0.01202
G1 X129.064 Y126.894 E0.01994
G1 X128.477 Y126.307 E0.02604
G1 X128.152 Y125.688 E0.02193
G1 X128.053 Y125.232 E0.01463
G1 X128.049 Y123.072 E0.06772
G1 X127.685 Y122.974 E0.01181
G1 X127.145 Y122.702 E0.01896
G1 X126.525 Y122.118 E0.02672
G1 X126.174 Y121.498 E0.02233
G1 X126.049 Y120.951 E0.01759
G1 X126.049 Y118.265 E0.08422
G1 X126.238 Y117.596 E0.02179
G1 X126.536 Y117.122 E0.01755
G1 X126.992 Y116.666 E0.02022
G1 X127.256 Y116.470 E0.01032
G1 X127.944 Y116.207 E0.02308
G1 X134.049 Y116.175 E0.19142
G1 X134.049 Y89.576 E0.83399
G1 X115.952 Y89.576 E0.56743
G1 X115.943 Y91.787 E0.06933
G1 X115.764 Y92.399 E0.01998
G1 X115.492 Y92.843 E0.01634
G1 X114.878 Y93.435 E0.02675
G1 X114.146 Y93.778 E0.02533
G1 X113.816 Y93.826 E0.01047
G1 X111.893 Y93.805 E0.06029
G1 X111.551 Y93.711 E0.01112
G1 X111.141 Y93.518 E0.01421
G1 X110.449 Y92.891 E0.02926
G1 X110.161 Y92.454 E0.01641
G1 X109.977 Y91.912 E0.01797
G1 X109.978 Y85.693 E0.19497
G1 X110.116 Y85.233 E0.01507
G1 X110.500 Y84.563 E0.02421
G1 X111.014 Y84.071 E0.02232
G1 X111.338 Y83.858 E0.01213
G1 X112.266 Y83.574 E0.03046
G1 X137.733 Y83.578 E0.79849
G1 X138.258 Y83.689 E0.01681
G1 X138.786 Y83.929 E0.01821
G1 X139.438 Y84.495 E0.02705
G1 X139.839 Y85.122 E0.02336
G1 X140.051 Y85.895 E0.02511
G1 X140.022 Y120.056 E1.07111
G1 X139.884 Y120.517 E0.01509
G1 X139.496 Y121.191 E0.02438
G1 X138.869 Y121.768 E0.02673
G1 X138.550 Y121.945 E0.01143
G1 X138.003 Y122.131 E0.01813
G1 X134.111 Y122.168 E0.12203
G1 X133.674 Y121.796 F7200.000
G1 F2100
G1 X133.674 Y125.208 E0.10701
G1 X133.458 Y125.873 E0.02191
G1 X133.299 Y126.105 E0.00882
G1 X132.783 Y126.611 E0.02267
G1 X132.160 Y126.910 E0.02166
G1 X131.903 Y126.949 E0.00816
G1 X130.065 Y126.934 E0.05761
G1 X129.783 Y126.857 E0.00919
G1 X129.268 Y126.576 E0.01838
G1 X128.798 Y126.106 E0.02086
G1 X128.499 Y125.537 E0.02014
G1 X128.426 Y125.177 E0.01152
G1 X128.426 Y122.699 E0.07769
G1 X128.067 Y122.685 E0.01128
G1 X127.830 Y122.625 E0.00765
G1 X127.382 Y122.407 E0.01563
G1 X126.806 Y121.864 E0.02482
G1 X126.518 Y121.341 E0.01873
G1 X126.426 Y120.931 E0.01318
G1 X126.426 Y118.293 E0.08270
G1 X126.592 Y117.729 E0.01842
G1 X126.817 Y117.375 E0.01318
G1 X127.248 Y116.944 E0.01911
G1 X127.457 Y116.790 E0.00812
G1 X128.043 Y116.573 E0.01960
G1 X134.426 Y116.551 E0.20014
G1 X134.426 Y89.199 E0.85761
G1 X115.574 Y89.199 E0.59110
G1 X115.574 Y91.707 E0.07864
G1 X115.409 Y92.268 E0.01834
G1 X115.211 Y92.592 E0.01190
G1 X114.685 Y93.110 E0.02315
G1 X114.060 Y93.410 E0.02173
G1 X113.803 Y93.449 E0.00816
G1 X111.966 Y93.434 E0.05760
G1 X111.696 Y93.363 E0.00876
G1 X111.329 Y93.190 E0.01272
G1 X110.724 Y92.632 E0.02581
G1 X110.492 Y92.272 E0.01341
G1 X110.345 Y91.824 E0.01481
G1 X110.348 Y85.772 E0.18975
G1 X110.455 Y85.400 E0.01213
G1 X110.813 Y84.776 E0.02256
G1 X111.261 Y84.356 E0.01926
G1 X111.479 Y84.209 E0.00824
G1 X112.296 Y83.951 E0.02687
G1 X137.712 Y83.955 E0.79689
G1 X138.155 Y84.052 E0.01423
G1 X138.602 Y84.259 E0.01543
G1 X139.168 Y84.759 E0.02369
G1 X139.485 Y85.253 E0.01837
G1 X139.674 Y85.921 E0.02180
G1 X139.652 Y119.978 E1.06782
G1 X139.545 Y120.350 E0.01214
G1 X139.185 Y120.977 E0.02267
G1 X138.634 Y121.472 E0.02323
G1 X138.408 Y121.596 E0.00807
G1 X137.966 Y121.754 E0.01473
G1 X133.734 Y121.795 E0.13270
G1 X133.297 Y121.421 F7200.000
G1 F2100
G1 X133.297 Y125.176 E0.11775
G1 X133.112 Y125.721 E0.01806
G1 X133.004 Y125.871 E0.00579
G1 X132.587 Y126.288 E0.01847
G1 X132.070 Y126.542 E0.01806
G1 X131.888 Y126.572 E0.00579
G1 X130.135 Y126.563 E0.05495
G1 X129.937 Y126.512 E0.00642
G1 X129.514 Y126.289 E0.01500
G1 X129.086 Y125.861 E0.01896
G1 X128.847 Y125.392 E0.01650
G1 X128.803 Y125.160 E0.00740
G1 X128.803 Y122.323 E0.08897
G1 X128.136 Y122.313 E0.02094
G1 X127.940 Y122.264 E0.00634
G1 X127.618 Y122.112 E0.01115
G1 X127.088 Y121.612 E0.02284
G1 X126.864 Y121.189 E0.01501
G1 X126.803 Y120.911 E0.00892
G1 X126.803 Y118.323 E0.08116
G1 X126.944 Y117.867 E0.01496
G1 X127.098 Y117.627 E0.00892
G1 X127.504 Y117.221 E0.01800
G1 X127.655 Y117.112 E0.00584
G1 X128.139 Y116.938 E0.01612
G1 X134.803 Y116.928 E0.20895
G1 X134.803 Y88.822 E0.88124
G1 X115.197 Y88.822 E0.61474
G1 X115.197 Y91.677 E0.08953
G1 X115.056 Y92.133 E0.01494
G1 X114.927 Y92.343 E0.00774
G1 X114.488 Y92.787 E0.01958
G1 X113.970 Y93.042 E0.01809
G1 X113.788 Y93.072 E0.00579
G1 X112.035 Y93.063 E0.05497
G1 X111.840 Y93.014 E0.00632
G1 X111.518 Y92.862 E0.01115
G1 X110.999 Y92.374 E0.02233
G1 X110.843 Y92.132 E0.00904
G1 X110.713 Y91.735 E0.01310
G1 X110.718 Y85.846 E0.18462
G1 X110.796 Y85.562 E0.00926
G1 X111.092 Y85.030 E0.01908
G1 X111.507 Y84.643 E0.01779
G1 X111.665 Y84.538 E0.00595
G1 X112.325 Y84.328 E0.02172
G1 X137.690 Y84.332 E0.79528
G1 X138.049 Y84.415 E0.01157
G1 X138.414 Y84.587 E0.01267
G1 X138.897 Y85.022 E0.02036
G1 X139.131 Y85.386 E0.01357
G1 X139.297 Y85.949 E0.01841
G1 X139.282 Y119.904 E1.06461
G1 X139.204 Y120.188 E0.00926
G1 X138.907 Y120.720 E0.01909
G1 X138.430 Y121.155 E0.02023
G1 X138.266 Y121.246 E0.00590
G1 X137.869 Y121.388 E0.01321
G1 X133.357 Y121.420 E0.14148
G1 X132.920 Y121.045 F7200.000
G1 F2100
G1 X132.920 Y125.144 E0.12854
G1 X132.788 Y125.527 E0.01270
G1 X132.725 Y125.617 E0.00345
G1 X132.343 Y125.999 E0.01692
G1 X131.979 Y126.176 E0.01270
G1 X131.871 Y126.195 E0.00344
G1 X130.198 Y126.191 E0.05244
G1 X130.084 Y126.164 E0.00369
G1 X129.758 Y126.000 E0.01144
G1 X129.376 Y125.618 E0.01693
G1 X129.199 Y125.254 E0.01270
G1 X129.180 Y125.146 E0.00345
G1 X129.180 Y121.946 E0.10033
G1 X128.199 Y121.941 E0.03078
G1 X128.081 Y121.914 E0.00378
G1 X127.808 Y121.785 E0.00947
G1 X127.375 Y121.365 E0.01890
G1 X127.212 Y121.043 E0.01131
G1 X127.180 Y120.892 E0.00484
G1 X127.180 Y118.354 E0.07958
G1 X127.293 Y118.010 E0.01136
G1 X127.378 Y117.881 E0.00484
G1 X127.758 Y117.500 E0.01686
G1 X127.848 Y117.437 E0.00345
G1 X128.231 Y117.305 E0.01270
G1 X135.180 Y117.305 E0.21790
G1 X135.180 Y88.445 E0.90490
G1 X114.820 Y88.445 E0.63839
G1 X114.820 Y91.646 E0.10036
G1 X114.706 Y91.992 E0.01144
G1 X114.644 Y92.093 E0.00371
G1 X114.242 Y92.499 E0.01791
G1 X113.879 Y92.676 E0.01268
G1 X113.771 Y92.695 E0.00344
G1 X112.098 Y92.691 E0.05244
G1 X111.981 Y92.664 E0.00377
G1 X111.708 Y92.535 E0.00947
G1 X111.277 Y92.118 E0.01880
G1 X111.193 Y91.990 E0.00479
G1 X111.080 Y91.646 E0.01136
G1 X111.089 Y85.916 E0.17964
G1 X111.140 Y85.718 E0.00643
G1 X111.374 Y85.284 E0.01545
G1 X111.751 Y84.930 E0.01622
G1 X111.848 Y84.868 E0.00360
G1 X112.355 Y84.705 E0.01670
G1 X137.668 Y84.709 E0.79367
G1 X137.906 Y84.764 E0.00767
G1 X138.226 Y84.916 E0.01110
