; generated by Slic3r 1.37.1-prusa3d-win64 on 2017-10-02 at 16:03:51

; 

; external perimeters extrusion width = 0.45mm
; perimeters extrusion width = 0.45mm
; infill extrusion width = 0.45mm
; solid infill extrusion width = 0.45mm
; top infill extrusion width = 0.45mm
; support material extrusion width = 0.35mm
; first layer extrusion width = 0.42mm

M107
M115 U3.0.12 ; tell printer latest fw version
M83  ; extruder relative mode
M104 S230 ; set extruder temp
M140 S85 ; set bed temp
M190 S85 ; wait for bed temp
M109 S230 ; wait for extruder temp
G28 W ; home all without mesh bed level
G80 ; mesh bed leveling
G1 Y-3.0 F1000.0 ; go outside pritn area
G1 X60.0 E9.0  F1000.0 ; intro line
G1 X100.0 E12.5  F1000.0 ; intro line
; Filament gcode

G21 ; set units to millimeters
G90 ; use absolute coordinates
M83 ; use relative distances for extrusion
G1 E-0.80000 F2100.00000
G1 Z0.200 F7200.000
G1 X99.009 Y62.959 F7200.000
G1 E0.80000 F2100.00000
M204 S1000
G1 F2100
G1 X99.262 Y62.175 E0.02584
G1 X99.635 Y61.434 E0.02602
G1 X100.117 Y60.759 E0.02602
G1 X100.698 Y60.166 E0.02602
G1 X101.358 Y59.672 E0.02584
G1 X102.091 Y59.284 E0.02602
G1 X102.870 Y59.013 E0.02584
G1 X103.686 Y58.865 E0.02602
G1 X138.935 Y58.837 E1.10518
G1 X146.752 Y59.014 E0.24516
G1 X147.530 Y59.112 E0.02459
G1 X148.291 Y59.324 E0.02477
G1 X149.544 Y59.971 E0.04424
G1 X150.586 Y60.923 E0.04424
G1 X151.344 Y62.113 E0.04424
G1 X151.767 Y63.459 E0.04424
G1 X151.848 Y64.376 E0.02888
G1 X151.847 Y130.762 E2.08149
G1 X151.699 Y132.011 E0.03943
G1 X151.306 Y133.109 E0.03657
G1 X150.688 Y134.092 E0.03639
G1 X139.029 Y148.016 E0.56942
G1 X138.377 Y148.651 E0.02853
G1 X135.481 Y151.026 E0.11744
G1 X134.803 Y151.484 E0.02566
G1 X133.601 Y151.987 E0.04085
G1 X132.307 Y152.186 E0.04103
G1 X117.761 Y152.189 E0.45609
G1 X116.558 Y152.040 E0.03800
G1 X115.553 Y151.691 E0.03336
G1 X114.641 Y151.154 E0.03318
G1 X111.577 Y148.540 E0.12630
G1 X111.060 Y148.021 E0.02297
G1 X101.634 Y136.246 E0.47290
G1 X99.928 Y133.972 E0.08913
G1 X99.322 Y132.936 E0.03764
G1 X98.962 Y131.797 E0.03746
G1 X98.860 Y130.766 E0.03246
G1 X98.860 Y64.208 E2.08689
G1 X99.002 Y63.019 E0.03755
G1 F5760
G1 X99.262 Y62.175 E-0.30586
G1 F5760
G1 X99.635 Y61.434 E-0.28742
G1 F5760
G1 X99.915 Y61.042 E-0.16672
G1 E-0.04000 F2100.00000
G1 X146.559 Y81.401 F7200.000
G1 E0.80000 F2100.00000
G1 F2100
G1 X146.559 Y115.865 E1.08060
G1 X146.902 Y115.872 E0.01075
G1 X147.744 Y116.042 E0.02693
G1 X148.989 Y116.694 E0.04407
G1 X149.973 Y117.757 E0.04543
G1 X150.533 Y119.050 E0.04417
G1 X150.618 Y119.703 E0.02066
G1 X150.618 Y131.147 E0.35881
G1 X150.508 Y131.837 E0.02191
G1 X149.866 Y133.124 E0.04510
G1 X148.980 Y133.998 E0.03903
G1 X148.027 Y134.520 E0.03405
G1 X147.551 Y135.389 E0.03106
G1 X146.673 Y136.259 E0.03875
G1 X145.837 Y136.738 E0.03022
G1 X144.941 Y137.008 E0.02934
G1 X144.846 Y137.240 E0.00785
G1 X144.471 Y137.779 E0.02060
G1 X143.814 Y138.459 E0.02963
G1 X143.617 Y138.593 E0.00747
G1 X143.521 Y138.959 E0.01186
G1 X143.102 Y139.803 E0.02954
G1 X142.290 Y140.717 E0.03835
G1 X141.352 Y141.321 E0.03496
G1 X140.812 Y141.502 E0.01786
G1 X140.788 Y142.773 E0.03986
G1 X140.377 Y144.079 E0.04294
G1 X139.953 Y144.722 E0.02414
G1 X139.212 Y145.473 E0.03308
G1 X138.951 Y145.636 E0.00964
G1 X138.835 Y146.035 E0.01303
G1 X138.217 Y147.098 E0.03855
G1 X137.437 Y147.844 E0.03384
G1 X136.757 Y148.258 E0.02494
G1 X135.895 Y148.546 E0.02852
G1 X135.463 Y149.328 E0.02799
G1 X134.879 Y149.941 E0.02656
G1 X134.321 Y150.374 E0.02214
G1 X132.579 Y150.960 E0.05761
G1 X118.828 Y150.961 E0.43118
G1 X116.768 Y150.853 E0.06465
G1 X116.068 Y150.597 E0.02337
G1 X115.474 Y150.261 E0.02141
G1 X114.545 Y149.393 E0.03986
G1 X114.033 Y148.495 E0.03240
G1 X113.332 Y148.260 E0.02318
G1 X112.693 Y147.878 E0.02334
G1 X111.951 Y147.202 E0.03146
G1 X111.230 Y145.981 E0.04449
G1 X111.147 Y145.713 E0.00879
G1 X110.688 Y145.429 E0.01692
G1 X109.898 Y144.594 E0.03606
G1 X109.518 Y143.956 E0.02327
G1 X109.153 Y142.689 E0.04135
G1 X109.139 Y141.463 E0.03844
G1 X108.717 Y141.314 E0.01405
G1 X107.746 Y140.674 E0.03644
G1 X106.983 Y139.803 E0.03632
G1 X106.582 Y139.009 E0.02789
G1 X106.499 Y138.694 E0.01022
G1 X106.218 Y138.521 E0.01033
G1 X105.494 Y137.792 E0.03220
G1 X105.106 Y137.235 E0.02130
G1 X104.998 Y136.971 E0.00894
G1 X104.088 Y136.683 E0.02993
G1 X103.344 Y136.228 E0.02733
G1 X102.517 Y135.406 E0.03658
G1 X101.939 Y134.346 E0.03785
G1 X101.862 Y134.077 E0.00876
G1 X101.603 Y133.898 E0.00989
G1 X100.817 Y133.090 E0.03533
G1 X100.437 Y132.463 E0.02299
G1 X100.181 Y131.773 E0.02308
G1 X100.089 Y119.710 E0.37823
G1 X100.176 Y119.039 E0.02123
G1 X100.770 Y117.704 E0.04580
G1 X101.769 Y116.658 E0.04535
G1 X102.913 Y116.060 E0.04047
G1 X103.442 Y115.936 E0.01705
G1 X103.441 Y81.352 E1.08437
G1 X102.913 Y81.229 E0.01701
G1 X101.769 Y80.631 E0.04047
G1 X100.770 Y79.584 E0.04535
G1 X100.177 Y78.250 E0.04578
G1 X100.090 Y77.585 E0.02103
G1 X100.090 Y63.824 E0.43149
G1 X100.199 Y63.138 E0.02177
G1 X100.752 Y61.972 E0.04046
G1 X101.643 Y61.037 E0.04051
G1 X102.508 Y60.533 E0.03141
G1 X103.278 Y60.298 E0.02524
G1 X104.403 Y60.267 E0.03526
G1 X104.667 Y60.235 E0.00834
G1 X112.270 Y60.252 E0.23840
G1 X113.348 Y60.524 E0.03485
G1 X114.343 Y61.100 E0.03605
G1 X115.195 Y61.999 E0.03883
G1 X115.707 Y62.992 E0.03502
G1 X115.927 Y64.057 E0.03411
G1 X115.906 Y78.059 E0.43901
G1 X115.690 Y78.890 E0.02692
G1 X115.260 Y79.700 E0.02876
G1 X114.351 Y80.641 E0.04102
G1 X113.314 Y81.207 E0.03704
G1 X112.459 Y81.405 E0.02752
G1 X112.459 Y87.477 E0.19038
G1 X137.541 Y87.477 E0.78641
G1 X137.541 Y81.227 E0.19597
G1 X136.467 Y80.636 E0.03841
G1 X135.500 Y79.644 E0.04345
G1 X135.021 Y78.724 E0.03253
G1 X134.789 Y77.715 E0.03247
G1 X134.781 Y63.841 E0.43499
G1 X134.860 Y63.246 E0.01883
G1 X135.463 Y61.942 E0.04503
G1 X136.285 Y61.075 E0.03746
G1 X137.329 Y60.478 E0.03770
G1 X138.076 Y60.282 E0.02422
G1 X139.097 Y60.266 E0.03202
G1 X139.363 Y60.235 E0.00841
G1 X146.971 Y60.248 E0.23854
G1 X148.297 Y60.635 E0.04330
G1 X148.933 Y61.028 E0.02343
G1 X149.792 Y61.877 E0.03789
G1 X150.327 Y62.807 E0.03365
G1 X150.618 Y63.975 E0.03773
G1 X150.618 Y77.847 E0.43494
G1 X150.481 Y78.615 E0.02446
G1 X149.893 Y79.777 E0.04085
G1 X148.987 Y80.683 E0.04018
G1 X147.928 Y81.234 E0.03741
G1 X147.140 Y81.397 E0.02524
G1 X146.619 Y81.401 E0.01634
G1 X146.182 Y81.021 F7200.000
G1 F2100
G1 X146.182 Y116.245 E1.10442
G1 X146.850 Y116.246 E0.02096
G1 X147.597 Y116.391 E0.02384
G1 X148.738 Y116.976 E0.04021
G1 X149.642 Y117.939 E0.04141
G1 X150.163 Y119.126 E0.04066
G1 X150.241 Y119.716 E0.01864
G1 X150.241 Y131.131 E0.35793
G1 X150.141 Y131.748 E0.01960
G1 X149.579 Y132.878 E0.03956
G1 X148.734 Y133.711 E0.03719
G1 X147.934 Y134.142 E0.02849
G1 X147.775 Y134.191 E0.00525
G1 X147.265 Y135.141 E0.03380
G1 X146.426 Y135.973 E0.03703
G1 X145.671 Y136.399 E0.02717
G1 X144.868 Y136.637 E0.02628
G1 X144.668 Y136.658 E0.00629
G1 X144.520 Y137.047 E0.01307
G1 X144.188 Y137.529 E0.01833
G1 X143.560 Y138.179 E0.02836
G1 X143.286 Y138.354 E0.01018
G1 X143.173 Y138.810 E0.01475
G1 X142.776 Y139.612 E0.02804
G1 X142.027 Y140.445 E0.03513
G1 X141.172 Y140.989 E0.03177
G1 X140.437 Y141.224 E0.02419
G1 X140.420 Y142.687 E0.04586
G1 X140.025 Y143.940 E0.04120
G1 X139.673 Y144.470 E0.01995
G1 X138.962 Y145.189 E0.03170
G1 X138.627 Y145.389 E0.01223
G1 X138.496 Y145.868 E0.01560
G1 X137.904 Y146.885 E0.03688
G1 X137.222 Y147.534 E0.02952
G1 X136.616 Y147.907 E0.02231
G1 X135.633 Y148.236 E0.03250
G1 X135.172 Y149.086 E0.03033
G1 X134.616 Y149.671 E0.02529
G1 X134.116 Y150.056 E0.01979
G1 X132.549 Y150.583 E0.05183
G1 X118.832 Y150.584 E0.43009
G1 X116.870 Y150.489 E0.06160
G1 X116.237 Y150.260 E0.02108
G1 X115.714 Y149.969 E0.01877
G1 X114.825 Y149.138 E0.03817
G1 X114.291 Y148.183 E0.03431
G1 X113.507 Y147.925 E0.02588
G1 X112.903 Y147.565 E0.02205
G1 X112.228 Y146.945 E0.02873
G1 X111.569 Y145.814 E0.04102
G1 X111.472 Y145.467 E0.01132
G1 X110.943 Y145.150 E0.01932
G1 X110.187 Y144.351 E0.03452
G1 X109.855 Y143.787 E0.02050
G1 X109.523 Y142.612 E0.03829
G1 X109.516 Y141.188 E0.04465
G1 X108.900 Y140.983 E0.02034
G1 X108.011 Y140.405 E0.03326
G1 X107.309 Y139.611 E0.03324
G1 X106.929 Y138.859 E0.02639
G1 X106.828 Y138.448 E0.01330
G1 X106.467 Y138.236 E0.01311
G1 X105.774 Y137.539 E0.03082
G1 X105.431 Y137.042 E0.01894
G1 X105.288 Y136.665 E0.01262
G1 X104.264 Y136.348 E0.03360
G1 X103.560 Y135.919 E0.02585
G1 X102.804 Y135.160 E0.03359
G1 X102.283 Y134.190 E0.03453
G1 X102.193 Y133.844 E0.01122
G1 X101.857 Y133.619 E0.01267
G1 X101.128 Y132.876 E0.03264
G1 X100.769 Y132.283 E0.02171
G1 X100.546 Y131.674 E0.02034
G1 X100.466 Y119.721 E0.37480
G1 X100.546 Y119.116 E0.01913
G1 X101.100 Y117.890 E0.04218
G1 X102.017 Y116.943 E0.04133
G1 X103.061 Y116.407 E0.03679
G1 X103.819 Y116.243 E0.02433
G1 X103.818 Y81.045 E1.10359
G1 X103.061 Y80.881 E0.02429
G1 X102.017 Y80.345 E0.03679
G1 X101.100 Y79.398 E0.04133
G1 X100.547 Y78.173 E0.04217
G1 X100.467 Y77.572 E0.01898
G1 X100.467 Y63.839 E0.43060
G1 X100.566 Y63.226 E0.01947
G1 X101.078 Y62.164 E0.03697
G1 X101.894 Y61.319 E0.03685
G1 X102.677 Y60.870 E0.02829
G1 X103.315 Y60.674 E0.02092
G1 X104.432 Y60.643 E0.03503
G1 X104.679 Y60.613 E0.00781
G1 X112.201 Y60.623 E0.23584
G1 X113.229 Y60.883 E0.03326
G1 X114.128 Y61.412 E0.03271
G1 X114.872 Y62.196 E0.03389
G1 X115.360 Y63.141 E0.03336
G1 X115.550 Y64.075 E0.02989
G1 X115.529 Y78.033 E0.43763
G1 X115.332 Y78.770 E0.02392
G1 X114.941 Y79.497 E0.02588
G1 X114.102 Y80.356 E0.03765
G1 X113.160 Y80.862 E0.03352
G1 X112.453 Y81.018 E0.02271
G1 X112.082 Y81.028 E0.01163
G1 X112.082 Y87.854 E0.21402
G1 X137.918 Y87.854 E0.81005
G1 X137.918 Y80.917 E0.21748
G1 X137.554 Y80.808 E0.01190
G1 X136.717 Y80.352 E0.02988
G1 X135.791 Y79.402 E0.04163
G1 X135.368 Y78.575 E0.02912
G1 X135.162 Y77.653 E0.02961
G1 X135.158 Y63.854 E0.43265
G1 X135.230 Y63.325 E0.01676
G1 X135.758 Y62.179 E0.03954
G1 X136.539 Y61.355 E0.03562
G1 X137.451 Y60.836 E0.03289
G1 X138.106 Y60.659 E0.02128
G1 X139.123 Y60.643 E0.03191
G1 X139.374 Y60.612 E0.00793
G1 X146.943 Y60.625 E0.23732
G1 X148.122 Y60.970 E0.03853
G1 X148.685 Y61.313 E0.02067
G1 X149.480 Y62.089 E0.03484
G1 X149.968 Y62.927 E0.03039
G1 X150.241 Y63.999 E0.03469
G1 X150.241 Y77.830 E0.43365
G1 X150.116 Y78.519 E0.02197
G1 X149.572 Y79.577 E0.03730
G1 X148.743 Y80.395 E0.03651
G1 X147.827 Y80.870 E0.03236
G1 X147.084 Y81.024 E0.02378
G1 X146.242 Y81.021 E0.02639
G1 X145.805 Y80.691 F7200.000
G1 F2100
G1 X145.805 Y116.625 E1.12669
G1 X146.797 Y116.620 E0.03113
G1 X147.499 Y116.756 E0.02242
G1 X148.488 Y117.260 E0.03479
G1 X149.311 Y118.123 E0.03740
G1 X149.793 Y119.204 E0.03712
G1 X149.864 Y119.729 E0.01659
G1 X149.864 Y131.115 E0.35702
G1 X149.774 Y131.658 E0.01726
G1 X149.290 Y132.633 E0.03412
G1 X148.531 Y133.392 E0.03365
G1 X147.780 Y133.796 E0.02674
G1 X147.478 Y133.874 E0.00977
G1 X147.424 Y134.046 E0.00564
G1 X146.978 Y134.894 E0.03006
G1 X146.179 Y135.687 E0.03529
G1 X145.544 Y136.043 E0.02282
G1 X144.786 Y136.267 E0.02479
G1 X144.397 Y136.289 E0.01223
G1 X144.194 Y136.857 E0.01890
G1 X143.906 Y137.278 E0.01602
G1 X143.307 Y137.898 E0.02701
G1 X142.955 Y138.112 E0.01291
G1 X142.825 Y138.663 E0.01777
G1 X142.450 Y139.420 E0.02649
G1 X141.766 Y140.172 E0.03186
G1 X140.994 Y140.655 E0.02857
G1 X140.061 Y140.945 E0.03063
G1 X140.052 Y142.601 E0.05193
G1 X139.674 Y143.799 E0.03939
G1 X139.372 Y144.242 E0.01680
G1 X138.715 Y144.904 E0.02925
G1 X138.301 Y145.138 E0.01490
G1 X138.155 Y145.705 E0.01835
G1 X137.624 Y146.631 E0.03348
G1 X136.977 Y147.246 E0.02799
G1 X136.440 Y147.573 E0.01973
G1 X135.618 Y147.844 E0.02714
G1 X135.403 Y147.866 E0.00676
G1 X134.881 Y148.845 E0.03482
G1 X134.353 Y149.400 E0.02400
G1 X133.912 Y149.738 E0.01743
G1 X132.518 Y150.206 E0.04609
G1 X118.836 Y150.207 E0.42901
G1 X116.969 Y150.124 E0.05857
G1 X116.404 Y149.922 E0.01884
G1 X115.954 Y149.677 E0.01606
G1 X115.105 Y148.884 E0.03642
G1 X114.551 Y147.872 E0.03617
G1 X113.646 Y147.574 E0.02990
G1 X113.115 Y147.253 E0.01944
G1 X112.506 Y146.688 E0.02604
G1 X111.910 Y145.651 E0.03750
G1 X111.800 Y145.220 E0.01397
G1 X111.198 Y144.870 E0.02183
G1 X110.476 Y144.108 E0.03292
G1 X110.194 Y143.620 E0.01767
G1 X109.894 Y142.537 E0.03526
G1 X109.894 Y140.911 E0.05098
G1 X109.082 Y140.652 E0.02672
G1 X108.274 Y140.134 E0.03008
G1 X107.634 Y139.418 E0.03011
G1 X107.277 Y138.711 E0.02484
G1 X107.158 Y138.199 E0.01649
G1 X106.714 Y137.950 E0.01595
G1 X106.054 Y137.286 E0.02938
G1 X105.757 Y136.851 E0.01652
G1 X105.552 Y136.280 E0.01901
G1 X105.197 Y136.255 E0.01113
G1 X104.404 Y135.998 E0.02616
G1 X103.779 Y135.610 E0.02305
G1 X103.092 Y134.915 E0.03063
G1 X102.628 Y134.037 E0.03115
G1 X102.526 Y133.609 E0.01378
G1 X102.110 Y133.338 E0.01558
G1 X101.438 Y132.659 E0.02996
G1 X101.117 Y132.136 E0.01925
G1 X100.912 Y131.576 E0.01870
G1 X100.844 Y119.732 E0.37134
G1 X100.916 Y119.195 E0.01700
G1 X101.428 Y118.078 E0.03853
G1 X102.263 Y117.231 E0.03729
G1 X103.207 Y116.756 E0.03313
G1 X103.824 Y116.628 E0.01977
G1 X104.196 Y116.618 E0.01168
G1 X104.195 Y80.670 E1.12712
G1 X103.824 Y80.660 E0.01163
G1 X103.207 Y80.532 E0.01977
G1 X102.263 Y80.058 E0.03313
G1 X101.428 Y79.210 E0.03729
G1 X100.916 Y78.093 E0.03852
G1 X100.844 Y77.559 E0.01690
G1 X100.844 Y63.855 E0.42969
G1 X100.934 Y63.315 E0.01718
G1 X101.371 Y62.402 E0.03174
G1 X102.106 Y61.632 E0.03336
G1 X102.845 Y61.209 E0.02672
G1 X103.398 Y61.043 E0.01808
G1 X104.460 Y61.020 E0.03332
G1 X104.691 Y60.990 E0.00732
G1 X112.134 Y60.995 E0.23334
G1 X113.062 Y61.222 E0.02998
G1 X113.913 Y61.723 E0.03096
G1 X114.578 Y62.433 E0.03050
G1 X115.012 Y63.288 E0.03007
G1 X115.173 Y64.093 E0.02574
G1 X115.152 Y78.006 E0.43623
G1 X114.975 Y78.647 E0.02086
G1 X114.623 Y79.292 E0.02303
G1 X113.855 Y80.071 E0.03430
G1 X113.054 Y80.499 E0.02847
G1 X112.393 Y80.645 E0.02121
G1 X111.705 Y80.648 E0.02158
G1 X111.705 Y88.231 E0.23774
G1 X138.295 Y88.231 E0.83370
G1 X138.295 Y80.628 E0.23836
G1 X137.714 Y80.466 E0.01890
G1 X136.924 Y80.035 E0.02823
G1 X136.083 Y79.162 E0.03801
G1 X135.716 Y78.428 E0.02574
G1 X135.539 Y77.632 E0.02555
G1 X135.535 Y63.867 E0.43159
G1 X135.599 Y63.404 E0.01467
G1 X136.054 Y62.414 E0.03416
G1 X136.753 Y61.667 E0.03207
G1 X137.576 Y61.192 E0.02980
G1 X138.137 Y61.035 E0.01824
G1 X139.151 Y61.020 E0.03180
G1 X139.386 Y60.990 E0.00742
G1 X146.915 Y61.002 E0.23607
G1 X147.950 Y61.306 E0.03382
G1 X148.440 Y61.600 E0.01792
G1 X149.169 Y62.304 E0.03180
G1 X149.611 Y63.049 E0.02712
G1 X149.864 Y64.024 E0.03158
G1 X149.864 Y77.812 E0.43232
G1 X149.751 Y78.421 E0.01944
G1 X149.252 Y79.376 E0.03377
G1 X148.542 Y80.074 E0.03123
G1 X147.724 Y80.506 E0.02901
G1 X147.028 Y80.650 E0.02228
G1 X146.236 Y80.643 E0.02482
G1 X145.865 Y80.684 E0.01172
G1 X145.428 Y80.294 F7200.000
G1 F2100
G1 X145.427 Y117.004 E1.15101
G1 X146.780 Y116.997 E0.04240
G1 X147.399 Y117.120 E0.01979
G1 X148.286 Y117.580 E0.03133
G1 X148.981 Y118.308 E0.03157
G1 X149.424 Y119.284 E0.03360
G1 X149.487 Y119.742 E0.01450
G1 X149.487 Y131.099 E0.35609
G1 X149.407 Y131.568 E0.01491
G1 X149.000 Y132.391 E0.02879
G1 X148.327 Y133.074 E0.03007
G1 X147.626 Y133.451 E0.02494
G1 X147.162 Y133.556 E0.01492
G1 X147.077 Y133.895 E0.01098
G1 X146.659 Y134.692 E0.02822
G1 X145.934 Y135.399 E0.03174
G1 X145.418 Y135.687 E0.01855
G1 X144.704 Y135.898 E0.02333
G1 X144.129 Y135.918 E0.01806
G1 X143.848 Y136.705 E0.02620
G1 X143.607 Y137.049 E0.01316
G1 X143.056 Y137.615 E0.02477
G1 X142.623 Y137.866 E0.01572
G1 X142.477 Y138.517 E0.02090
G1 X142.124 Y139.228 E0.02488
G1 X141.508 Y139.896 E0.02851
G1 X140.817 Y140.321 E0.02542
G1 X140.163 Y140.523 E0.02147
G1 X139.683 Y140.547 E0.01507
G1 X139.683 Y142.516 E0.06173
G1 X139.324 Y143.657 E0.03750
G1 X139.075 Y144.010 E0.01355
G1 X138.469 Y144.616 E0.02688
G1 X137.974 Y144.885 E0.01766
G1 X137.813 Y145.544 E0.02126
G1 X137.344 Y146.378 E0.03000
G1 X136.733 Y146.958 E0.02641
G1 X136.265 Y147.238 E0.01709
G1 X135.530 Y147.476 E0.02424
G1 X135.090 Y147.500 E0.01382
G1 X135.015 Y147.793 E0.00948
G1 X134.589 Y148.605 E0.02876
G1 X134.091 Y149.129 E0.02266
